(Generated by PartKam Version 0.05)

G20 G90 G40

(Centering Hole)
G0 Z0.125
T0 M6
G17
M3
G0 X1.7627 Y3.9279
G1 Z-0.01 F30
G3 X1.5161 Y3.7239 I0.9559 J-1.4065 F60
G3 X1.3121 Y3.4773 I1.2025 J-1.2025
G3 X1.1727 Y3.2189 I1.191 J-0.8094
G3 X1.0886 Y2.9376 I1.3304 J-0.5511
G3 X1.0585 Y2.619 I1.6704 J-0.3186
G3 X1.0886 Y2.3004 I1.7006 J0
G3 X1.1727 Y2.0191 I1.4145 J0.2698
G3 X1.3121 Y1.7607 I1.3304 J0.5511
G3 X1.5161 Y1.5141 I1.4065 J0.9559
G3 X1.7627 Y1.3101 I1.2025 J1.2025
G3 X2.0211 Y1.1707 I0.8094 J1.191
G3 X2.3024 Y1.0866 I0.5511 J1.3304
G3 X2.621 Y1.0565 I0.3186 J1.6704
G3 X2.9396 Y1.0866 I0 J1.7006
G3 X3.2209 Y1.1707 I-0.2698 J1.4145
G3 X3.4793 Y1.3101 I-0.5511 J1.3304
G3 X3.7259 Y1.5141 I-0.9559 J1.4065
G3 X3.9299 Y1.7607 I-1.2025 J1.2025
G3 X4.0693 Y2.0191 I-1.191 J0.8094
G3 X4.1534 Y2.3004 I-1.3304 J0.5511
G3 X4.1835 Y2.619 I-1.6704 J0.3186
G3 X4.1534 Y2.9376 I-1.7006 J0
G3 X4.0693 Y3.2189 I-1.4145 J-0.2698
G3 X3.9299 Y3.4773 I-1.3304 J-0.5511
G3 X3.7259 Y3.7239 I-1.4065 J-0.9559
G3 X3.4793 Y3.9279 I-1.2025 J-1.2025
G3 X3.2209 Y4.0673 I-0.8094 J-1.191
G3 X2.9396 Y4.1514 I-0.5511 J-1.3304
G3 X2.621 Y4.1815 I-0.3186 J-1.6704
G3 X2.3024 Y4.1514 I0 J-1.7006
G3 X2.0211 Y4.0673 I0.2698 J-1.4145
G3 X1.7627 Y3.9279 I0.5511 J-1.3304
G0 Z0.125
M5
M30
