(Generated by PartKam Version 0.05)

G20 G90 G40

(cut out)
G0 Z0.125
T0 M6
G17
M3
G0 X-0.015 Y3.1643
G1 Z-0.1 F30
G3 X-0.0665 Y2.619 I2.859 J-0.5453 F60
G3 X-0.015 Y2.0737 I2.9105 J0
G3 X0.1305 Y1.5874 I2.4456 J0.4665
G3 X0.3715 Y1.1407 I2.3002 J0.9528
G3 X0.7207 Y0.7187 I2.4072 J1.636
G3 X1.1427 Y0.3695 I2.0581 J2.0581
G3 X1.5894 Y0.1285 I1.3994 J2.0591
G3 X2.0757 Y-0.017 I0.9528 J2.3002
G3 X2.621 Y-0.0685 I0.5453 J2.859
G3 X3.1663 Y-0.017 I0 J2.9105
G3 X3.6526 Y0.1285 I-0.4665 J2.4456
G3 X4.0993 Y0.3695 I-0.9528 J2.3002
G3 X4.5213 Y0.7187 I-1.636 J2.4072
G3 X4.8705 Y1.1407 I-2.0581 J2.0581
G3 X5.1115 Y1.5874 I-2.0591 J1.3994
G3 X5.257 Y2.0737 I-2.3002 J0.9528
G3 X5.3085 Y2.619 I-2.859 J0.5453
G3 X5.257 Y3.1643 I-2.9105 J0
G3 X5.1115 Y3.6506 I-2.4456 J-0.4665
G3 X4.8705 Y4.0973 I-2.3002 J-0.9528
G3 X4.5213 Y4.5193 I-2.4072 J-1.636
G3 X4.0993 Y4.8685 I-2.0581 J-2.0581
G3 X3.6526 Y5.1095 I-1.3994 J-2.0591
G3 X3.1663 Y5.255 I-0.9528 J-2.3002
G3 X2.621 Y5.3065 I-0.5453 J-2.859
G3 X2.0757 Y5.255 I0 J-2.9105
G3 X1.5894 Y5.1095 I0.4665 J-2.4456
G3 X1.1427 Y4.8685 I0.9528 J-2.3002
G3 X0.7207 Y4.5193 I1.636 J-2.4072
G3 X0.3715 Y4.0973 I2.0581 J-2.0581
G3 X0.1305 Y3.6506 I2.0591 J-1.3994
G3 X-0.015 Y3.1643 I2.3002 J-0.9528
G1 Z-0.2 F30
G3 X-0.0665 Y2.619 I2.859 J-0.5453 F60
G3 X-0.015 Y2.0737 I2.9105 J0
G3 X0.1305 Y1.5874 I2.4456 J0.4665
G3 X0.3715 Y1.1407 I2.3002 J0.9528
G3 X0.7207 Y0.7187 I2.4072 J1.636
G3 X1.1427 Y0.3695 I2.0581 J2.0581
G3 X1.5894 Y0.1285 I1.3994 J2.0591
G3 X2.0757 Y-0.017 I0.9528 J2.3002
G3 X2.621 Y-0.0685 I0.5453 J2.859
G3 X3.1663 Y-0.017 I0 J2.9105
G3 X3.6526 Y0.1285 I-0.4665 J2.4456
G3 X4.0993 Y0.3695 I-0.9528 J2.3002
G3 X4.5213 Y0.7187 I-1.636 J2.4072
G3 X4.8705 Y1.1407 I-2.0581 J2.0581
G3 X5.1115 Y1.5874 I-2.0591 J1.3994
G3 X5.257 Y2.0737 I-2.3002 J0.9528
G3 X5.3085 Y2.619 I-2.859 J0.5453
G3 X5.257 Y3.1643 I-2.9105 J0
G3 X5.1115 Y3.6506 I-2.4456 J-0.4665
G3 X4.8705 Y4.0973 I-2.3002 J-0.9528
G3 X4.5213 Y4.5193 I-2.4072 J-1.636
G3 X4.0993 Y4.8685 I-2.0581 J-2.0581
G3 X3.6526 Y5.1095 I-1.3994 J-2.0591
G3 X3.1663 Y5.255 I-0.9528 J-2.3002
G3 X2.621 Y5.3065 I-0.5453 J-2.859
G3 X2.0757 Y5.255 I0 J-2.9105
G3 X1.5894 Y5.1095 I0.4665 J-2.4456
G3 X1.1427 Y4.8685 I0.9528 J-2.3002
G3 X0.7207 Y4.5193 I1.636 J-2.4072
G3 X0.3715 Y4.0973 I2.0581 J-2.0581
G3 X0.1305 Y3.6506 I2.0591 J-1.3994
G3 X-0.015 Y3.1643 I2.3002 J-0.9528
G1 Z-0.3 F30
G3 X-0.0665 Y2.619 I2.859 J-0.5453 F60
G3 X-0.015 Y2.0737 I2.9105 J0
G3 X0.1305 Y1.5874 I2.4456 J0.4665
G3 X0.3715 Y1.1407 I2.3002 J0.9528
G3 X0.7207 Y0.7187 I2.4072 J1.636
G3 X1.1427 Y0.3695 I2.0581 J2.0581
G3 X1.5894 Y0.1285 I1.3994 J2.0591
G3 X2.0757 Y-0.017 I0.9528 J2.3002
G3 X2.621 Y-0.0685 I0.5453 J2.859
G3 X3.1663 Y-0.017 I0 J2.9105
G3 X3.6526 Y0.1285 I-0.4665 J2.4456
G3 X4.0993 Y0.3695 I-0.9528 J2.3002
G3 X4.5213 Y0.7187 I-1.636 J2.4072
G3 X4.8705 Y1.1407 I-2.0581 J2.0581
G3 X5.1115 Y1.5874 I-2.0591 J1.3994
G3 X5.257 Y2.0737 I-2.3002 J0.9528
G3 X5.3085 Y2.619 I-2.859 J0.5453
G3 X5.257 Y3.1643 I-2.9105 J0
G3 X5.1115 Y3.6506 I-2.4456 J-0.4665
G3 X4.8705 Y4.0973 I-2.3002 J-0.9528
G3 X4.5213 Y4.5193 I-2.4072 J-1.636
G3 X4.0993 Y4.8685 I-2.0581 J-2.0581
G3 X3.6526 Y5.1095 I-1.3994 J-2.0591
G3 X3.1663 Y5.255 I-0.9528 J-2.3002
G3 X2.621 Y5.3065 I-0.5453 J-2.859
G3 X2.0757 Y5.255 I0 J-2.9105
G3 X1.5894 Y5.1095 I0.4665 J-2.4456
G3 X1.1427 Y4.8685 I0.9528 J-2.3002
G3 X0.7207 Y4.5193 I1.636 J-2.4072
G3 X0.3715 Y4.0973 I2.0581 J-2.0581
G3 X0.1305 Y3.6506 I2.0591 J-1.3994
G3 X-0.015 Y3.1643 I2.3002 J-0.9528
G1 Z-0.4 F30
G3 X-0.0665 Y2.619 I2.859 J-0.5453 F60
G3 X-0.015 Y2.0737 I2.9105 J0
G3 X0.1305 Y1.5874 I2.4456 J0.4665
G3 X0.3715 Y1.1407 I2.3002 J0.9528
G3 X0.7207 Y0.7187 I2.4072 J1.636
G3 X1.1427 Y0.3695 I2.0581 J2.0581
G3 X1.5894 Y0.1285 I1.3994 J2.0591
G3 X2.0757 Y-0.017 I0.9528 J2.3002
G3 X2.621 Y-0.0685 I0.5453 J2.859
G3 X3.1663 Y-0.017 I0 J2.9105
G3 X3.6526 Y0.1285 I-0.4665 J2.4456
G3 X4.0993 Y0.3695 I-0.9528 J2.3002
G3 X4.5213 Y0.7187 I-1.636 J2.4072
G3 X4.8705 Y1.1407 I-2.0581 J2.0581
G3 X5.1115 Y1.5874 I-2.0591 J1.3994
G3 X5.257 Y2.0737 I-2.3002 J0.9528
G3 X5.3085 Y2.619 I-2.859 J0.5453
G3 X5.257 Y3.1643 I-2.9105 J0
G3 X5.1115 Y3.6506 I-2.4456 J-0.4665
G3 X4.8705 Y4.0973 I-2.3002 J-0.9528
G3 X4.5213 Y4.5193 I-2.4072 J-1.636
G3 X4.0993 Y4.8685 I-2.0581 J-2.0581
G3 X3.6526 Y5.1095 I-1.3994 J-2.0591
G3 X3.1663 Y5.255 I-0.9528 J-2.3002
G3 X2.621 Y5.3065 I-0.5453 J-2.859
G3 X2.0757 Y5.255 I0 J-2.9105
G3 X1.5894 Y5.1095 I0.4665 J-2.4456
G3 X1.1427 Y4.8685 I0.9528 J-2.3002
G3 X0.7207 Y4.5193 I1.636 J-2.4072
G3 X0.3715 Y4.0973 I2.0581 J-2.0581
G3 X0.1305 Y3.6506 I2.0591 J-1.3994
G3 X-0.015 Y3.1643 I2.3002 J-0.9528
G1 Z-0.5 F30
G3 X-0.0665 Y2.619 I2.859 J-0.5453 F60
G3 X-0.015 Y2.0737 I2.9105 J0
G3 X0.1305 Y1.5874 I2.4456 J0.4665
G3 X0.3715 Y1.1407 I2.3002 J0.9528
G3 X0.7207 Y0.7187 I2.4072 J1.636
G3 X1.1427 Y0.3695 I2.0581 J2.0581
G3 X1.5894 Y0.1285 I1.3994 J2.0591
G3 X2.0757 Y-0.017 I0.9528 J2.3002
G3 X2.621 Y-0.0685 I0.5453 J2.859
G3 X3.1663 Y-0.017 I0 J2.9105
G3 X3.6526 Y0.1285 I-0.4665 J2.4456
G3 X4.0993 Y0.3695 I-0.9528 J2.3002
G3 X4.5213 Y0.7187 I-1.636 J2.4072
G3 X4.8705 Y1.1407 I-2.0581 J2.0581
G3 X5.1115 Y1.5874 I-2.0591 J1.3994
G3 X5.257 Y2.0737 I-2.3002 J0.9528
G3 X5.3085 Y2.619 I-2.859 J0.5453
G3 X5.257 Y3.1643 I-2.9105 J0
G3 X5.1115 Y3.6506 I-2.4456 J-0.4665
G3 X4.8705 Y4.0973 I-2.3002 J-0.9528
G3 X4.5213 Y4.5193 I-2.4072 J-1.636
G3 X4.0993 Y4.8685 I-2.0581 J-2.0581
G3 X3.6526 Y5.1095 I-1.3994 J-2.0591
G3 X3.1663 Y5.255 I-0.9528 J-2.3002
G3 X2.621 Y5.3065 I-0.5453 J-2.859
G3 X2.0757 Y5.255 I0 J-2.9105
G3 X1.5894 Y5.1095 I0.4665 J-2.4456
G3 X1.1427 Y4.8685 I0.9528 J-2.3002
G3 X0.7207 Y4.5193 I1.636 J-2.4072
G3 X0.3715 Y4.0973 I2.0581 J-2.0581
G3 X0.1305 Y3.6506 I2.0591 J-1.3994
G3 X-0.015 Y3.1643 I2.3002 J-0.9528
G1 Z-0.6 F30
G3 X-0.0665 Y2.619 I2.859 J-0.5453 F60
G3 X-0.015 Y2.0737 I2.9105 J0
G3 X0.1305 Y1.5874 I2.4456 J0.4665
G3 X0.3715 Y1.1407 I2.3002 J0.9528
G3 X0.7207 Y0.7187 I2.4072 J1.636
G3 X1.1427 Y0.3695 I2.0581 J2.0581
G3 X1.5894 Y0.1285 I1.3994 J2.0591
G3 X2.0757 Y-0.017 I0.9528 J2.3002
G3 X2.621 Y-0.0685 I0.5453 J2.859
G3 X3.1663 Y-0.017 I0 J2.9105
G3 X3.6526 Y0.1285 I-0.4665 J2.4456
G3 X4.0993 Y0.3695 I-0.9528 J2.3002
G3 X4.5213 Y0.7187 I-1.636 J2.4072
G3 X4.8705 Y1.1407 I-2.0581 J2.0581
G3 X5.1115 Y1.5874 I-2.0591 J1.3994
G3 X5.257 Y2.0737 I-2.3002 J0.9528
G3 X5.3085 Y2.619 I-2.859 J0.5453
G3 X5.257 Y3.1643 I-2.9105 J0
G3 X5.1115 Y3.6506 I-2.4456 J-0.4665
G3 X4.8705 Y4.0973 I-2.3002 J-0.9528
G3 X4.5213 Y4.5193 I-2.4072 J-1.636
G3 X4.0993 Y4.8685 I-2.0581 J-2.0581
G3 X3.6526 Y5.1095 I-1.3994 J-2.0591
G3 X3.1663 Y5.255 I-0.9528 J-2.3002
G3 X2.621 Y5.3065 I-0.5453 J-2.859
G3 X2.0757 Y5.255 I0 J-2.9105
G3 X1.5894 Y5.1095 I0.4665 J-2.4456
G3 X1.1427 Y4.8685 I0.9528 J-2.3002
G3 X0.7207 Y4.5193 I1.636 J-2.4072
G3 X0.3715 Y4.0973 I2.0581 J-2.0581
G3 X0.1305 Y3.6506 I2.0591 J-1.3994
G3 X-0.015 Y3.1643 I2.3002 J-0.9528
G1 Z-0.7 F30
G3 X-0.0665 Y2.619 I2.859 J-0.5453 F60
G3 X-0.015 Y2.0737 I2.9105 J0
G3 X0.1305 Y1.5874 I2.4456 J0.4665
G3 X0.3715 Y1.1407 I2.3002 J0.9528
G3 X0.7207 Y0.7187 I2.4072 J1.636
G3 X1.1427 Y0.3695 I2.0581 J2.0581
G3 X1.5894 Y0.1285 I1.3994 J2.0591
G3 X2.0757 Y-0.017 I0.9528 J2.3002
G3 X2.621 Y-0.0685 I0.5453 J2.859
G3 X3.1663 Y-0.017 I0 J2.9105
G3 X3.6526 Y0.1285 I-0.4665 J2.4456
G3 X4.0993 Y0.3695 I-0.9528 J2.3002
G3 X4.5213 Y0.7187 I-1.636 J2.4072
G3 X4.8705 Y1.1407 I-2.0581 J2.0581
G3 X5.1115 Y1.5874 I-2.0591 J1.3994
G3 X5.257 Y2.0737 I-2.3002 J0.9528
G3 X5.3085 Y2.619 I-2.859 J0.5453
G3 X5.257 Y3.1643 I-2.9105 J0
G3 X5.1115 Y3.6506 I-2.4456 J-0.4665
G3 X4.8705 Y4.0973 I-2.3002 J-0.9528
G3 X4.5213 Y4.5193 I-2.4072 J-1.636
G3 X4.0993 Y4.8685 I-2.0581 J-2.0581
G3 X3.6526 Y5.1095 I-1.3994 J-2.0591
G3 X3.1663 Y5.255 I-0.9528 J-2.3002
G3 X2.621 Y5.3065 I-0.5453 J-2.859
G3 X2.0757 Y5.255 I0 J-2.9105
G3 X1.5894 Y5.1095 I0.4665 J-2.4456
G3 X1.1427 Y4.8685 I0.9528 J-2.3002
G3 X0.7207 Y4.5193 I1.636 J-2.4072
G3 X0.3715 Y4.0973 I2.0581 J-2.0581
G3 X0.1305 Y3.6506 I2.0591 J-1.3994
G3 X-0.015 Y3.1643 I2.3002 J-0.9528
G1 Z-0.8 F30
G3 X-0.0665 Y2.619 I2.859 J-0.5453 F60
G3 X-0.015 Y2.0737 I2.9105 J0
G3 X0.1305 Y1.5874 I2.4456 J0.4665
G3 X0.3715 Y1.1407 I2.3002 J0.9528
G3 X0.7207 Y0.7187 I2.4072 J1.636
G3 X1.1427 Y0.3695 I2.0581 J2.0581
G3 X1.5894 Y0.1285 I1.3994 J2.0591
G3 X2.0757 Y-0.017 I0.9528 J2.3002
G3 X2.621 Y-0.0685 I0.5453 J2.859
G3 X3.1663 Y-0.017 I0 J2.9105
G3 X3.6526 Y0.1285 I-0.4665 J2.4456
G3 X4.0993 Y0.3695 I-0.9528 J2.3002
G3 X4.5213 Y0.7187 I-1.636 J2.4072
G3 X4.8705 Y1.1407 I-2.0581 J2.0581
G3 X5.1115 Y1.5874 I-2.0591 J1.3994
G3 X5.257 Y2.0737 I-2.3002 J0.9528
G3 X5.3085 Y2.619 I-2.859 J0.5453
G3 X5.257 Y3.1643 I-2.9105 J0
G3 X5.1115 Y3.6506 I-2.4456 J-0.4665
G3 X4.8705 Y4.0973 I-2.3002 J-0.9528
G3 X4.5213 Y4.5193 I-2.4072 J-1.636
G3 X4.0993 Y4.8685 I-2.0581 J-2.0581
G3 X3.6526 Y5.1095 I-1.3994 J-2.0591
G3 X3.1663 Y5.255 I-0.9528 J-2.3002
G3 X2.621 Y5.3065 I-0.5453 J-2.859
G3 X2.0757 Y5.255 I0 J-2.9105
G3 X1.5894 Y5.1095 I0.4665 J-2.4456
G3 X1.1427 Y4.8685 I0.9528 J-2.3002
G3 X0.7207 Y4.5193 I1.636 J-2.4072
G3 X0.3715 Y4.0973 I2.0581 J-2.0581
G3 X0.1305 Y3.6506 I2.0591 J-1.3994
G3 X-0.015 Y3.1643 I2.3002 J-0.9528
G1 Z-0.9 F30
G3 X-0.0665 Y2.619 I2.859 J-0.5453 F60
G3 X-0.015 Y2.0737 I2.9105 J0
G3 X0.1305 Y1.5874 I2.4456 J0.4665
G3 X0.3715 Y1.1407 I2.3002 J0.9528
G3 X0.7207 Y0.7187 I2.4072 J1.636
G3 X1.1427 Y0.3695 I2.0581 J2.0581
G3 X1.5894 Y0.1285 I1.3994 J2.0591
G3 X2.0757 Y-0.017 I0.9528 J2.3002
G3 X2.621 Y-0.0685 I0.5453 J2.859
G3 X3.1663 Y-0.017 I0 J2.9105
G3 X3.6526 Y0.1285 I-0.4665 J2.4456
G3 X4.0993 Y0.3695 I-0.9528 J2.3002
G3 X4.5213 Y0.7187 I-1.636 J2.4072
G3 X4.8705 Y1.1407 I-2.0581 J2.0581
G3 X5.1115 Y1.5874 I-2.0591 J1.3994
G3 X5.257 Y2.0737 I-2.3002 J0.9528
G3 X5.3085 Y2.619 I-2.859 J0.5453
G3 X5.257 Y3.1643 I-2.9105 J0
G3 X5.1115 Y3.6506 I-2.4456 J-0.4665
G3 X4.8705 Y4.0973 I-2.3002 J-0.9528
G3 X4.5213 Y4.5193 I-2.4072 J-1.636
G3 X4.0993 Y4.8685 I-2.0581 J-2.0581
G3 X3.6526 Y5.1095 I-1.3994 J-2.0591
G3 X3.1663 Y5.255 I-0.9528 J-2.3002
G3 X2.621 Y5.3065 I-0.5453 J-2.859
G3 X2.0757 Y5.255 I0 J-2.9105
G3 X1.5894 Y5.1095 I0.4665 J-2.4456
G3 X1.1427 Y4.8685 I0.9528 J-2.3002
G3 X0.7207 Y4.5193 I1.636 J-2.4072
G3 X0.3715 Y4.0973 I2.0581 J-2.0581
G3 X0.1305 Y3.6506 I2.0591 J-1.3994
G3 X-0.015 Y3.1643 I2.3002 J-0.9528
G1 Z-1 F30
G3 X-0.0665 Y2.619 I2.859 J-0.5453 F60
G3 X-0.015 Y2.0737 I2.9105 J0
G3 X0.1305 Y1.5874 I2.4456 J0.4665
G3 X0.3715 Y1.1407 I2.3002 J0.9528
G3 X0.7207 Y0.7187 I2.4072 J1.636
G3 X1.1427 Y0.3695 I2.0581 J2.0581
G3 X1.5894 Y0.1285 I1.3994 J2.0591
G3 X2.0757 Y-0.017 I0.9528 J2.3002
G3 X2.621 Y-0.0685 I0.5453 J2.859
G3 X3.1663 Y-0.017 I0 J2.9105
G3 X3.6526 Y0.1285 I-0.4665 J2.4456
G3 X4.0993 Y0.3695 I-0.9528 J2.3002
G3 X4.5213 Y0.7187 I-1.636 J2.4072
G3 X4.8705 Y1.1407 I-2.0581 J2.0581
G3 X5.1115 Y1.5874 I-2.0591 J1.3994
G3 X5.257 Y2.0737 I-2.3002 J0.9528
G3 X5.3085 Y2.619 I-2.859 J0.5453
G3 X5.257 Y3.1643 I-2.9105 J0
G3 X5.1115 Y3.6506 I-2.4456 J-0.4665
G3 X4.8705 Y4.0973 I-2.3002 J-0.9528
G3 X4.5213 Y4.5193 I-2.4072 J-1.636
G3 X4.0993 Y4.8685 I-2.0581 J-2.0581
G3 X3.6526 Y5.1095 I-1.3994 J-2.0591
G3 X3.1663 Y5.255 I-0.9528 J-2.3002
G3 X2.621 Y5.3065 I-0.5453 J-2.859
G3 X2.0757 Y5.255 I0 J-2.9105
G3 X1.5894 Y5.1095 I0.4665 J-2.4456
G3 X1.1427 Y4.8685 I0.9528 J-2.3002
G3 X0.7207 Y4.5193 I1.636 J-2.4072
G3 X0.3715 Y4.0973 I2.0581 J-2.0581
G3 X0.1305 Y3.6506 I2.0591 J-1.3994
G3 X-0.015 Y3.1643 I2.3002 J-0.9528
G1 Z-1.1 F30
G3 X-0.0665 Y2.619 I2.859 J-0.5453 F60
G3 X-0.015 Y2.0737 I2.9105 J0
G3 X0.1305 Y1.5874 I2.4456 J0.4665
G3 X0.3715 Y1.1407 I2.3002 J0.9528
G3 X0.7207 Y0.7187 I2.4072 J1.636
G3 X1.1427 Y0.3695 I2.0581 J2.0581
G3 X1.5894 Y0.1285 I1.3994 J2.0591
G3 X2.0757 Y-0.017 I0.9528 J2.3002
G3 X2.621 Y-0.0685 I0.5453 J2.859
G3 X3.1663 Y-0.017 I0 J2.9105
G3 X3.6526 Y0.1285 I-0.4665 J2.4456
G3 X4.0993 Y0.3695 I-0.9528 J2.3002
G3 X4.5213 Y0.7187 I-1.636 J2.4072
G3 X4.8705 Y1.1407 I-2.0581 J2.0581
G3 X5.1115 Y1.5874 I-2.0591 J1.3994
G3 X5.257 Y2.0737 I-2.3002 J0.9528
G3 X5.3085 Y2.619 I-2.859 J0.5453
G3 X5.257 Y3.1643 I-2.9105 J0
G3 X5.1115 Y3.6506 I-2.4456 J-0.4665
G3 X4.8705 Y4.0973 I-2.3002 J-0.9528
G3 X4.5213 Y4.5193 I-2.4072 J-1.636
G3 X4.0993 Y4.8685 I-2.0581 J-2.0581
G3 X3.6526 Y5.1095 I-1.3994 J-2.0591
G3 X3.1663 Y5.255 I-0.9528 J-2.3002
G3 X2.621 Y5.3065 I-0.5453 J-2.859
G3 X2.0757 Y5.255 I0 J-2.9105
G3 X1.5894 Y5.1095 I0.4665 J-2.4456
G3 X1.1427 Y4.8685 I0.9528 J-2.3002
G3 X0.7207 Y4.5193 I1.636 J-2.4072
G3 X0.3715 Y4.0973 I2.0581 J-2.0581
G3 X0.1305 Y3.6506 I2.0591 J-1.3994
G3 X-0.015 Y3.1643 I2.3002 J-0.9528
G1 Z-1.2 F30
G3 X-0.0665 Y2.619 I2.859 J-0.5453 F60
G3 X-0.015 Y2.0737 I2.9105 J0
G3 X0.1305 Y1.5874 I2.4456 J0.4665
G3 X0.3715 Y1.1407 I2.3002 J0.9528
G3 X0.7207 Y0.7187 I2.4072 J1.636
G3 X1.1427 Y0.3695 I2.0581 J2.0581
G3 X1.5894 Y0.1285 I1.3994 J2.0591
G3 X2.0757 Y-0.017 I0.9528 J2.3002
G3 X2.621 Y-0.0685 I0.5453 J2.859
G3 X3.1663 Y-0.017 I0 J2.9105
G3 X3.6526 Y0.1285 I-0.4665 J2.4456
G3 X4.0993 Y0.3695 I-0.9528 J2.3002
G3 X4.5213 Y0.7187 I-1.636 J2.4072
G3 X4.8705 Y1.1407 I-2.0581 J2.0581
G3 X5.1115 Y1.5874 I-2.0591 J1.3994
G3 X5.257 Y2.0737 I-2.3002 J0.9528
G3 X5.3085 Y2.619 I-2.859 J0.5453
G3 X5.257 Y3.1643 I-2.9105 J0
G3 X5.1115 Y3.6506 I-2.4456 J-0.4665
G3 X4.8705 Y4.0973 I-2.3002 J-0.9528
G3 X4.5213 Y4.5193 I-2.4072 J-1.636
G3 X4.0993 Y4.8685 I-2.0581 J-2.0581
G3 X3.6526 Y5.1095 I-1.3994 J-2.0591
G3 X3.1663 Y5.255 I-0.9528 J-2.3002
G3 X2.621 Y5.3065 I-0.5453 J-2.859
G3 X2.0757 Y5.255 I0 J-2.9105
G3 X1.5894 Y5.1095 I0.4665 J-2.4456
G3 X1.1427 Y4.8685 I0.9528 J-2.3002
G3 X0.7207 Y4.5193 I1.636 J-2.4072
G3 X0.3715 Y4.0973 I2.0581 J-2.0581
G3 X0.1305 Y3.6506 I2.0591 J-1.3994
G3 X-0.015 Y3.1643 I2.3002 J-0.9528
G1 Z-1.3 F30
G3 X-0.0665 Y2.619 I2.859 J-0.5453 F60
G3 X-0.015 Y2.0737 I2.9105 J0
G3 X0.1305 Y1.5874 I2.4456 J0.4665
G3 X0.3715 Y1.1407 I2.3002 J0.9528
G3 X0.7207 Y0.7187 I2.4072 J1.636
G3 X1.1427 Y0.3695 I2.0581 J2.0581
G3 X1.5894 Y0.1285 I1.3994 J2.0591
G3 X2.0757 Y-0.017 I0.9528 J2.3002
G3 X2.621 Y-0.0685 I0.5453 J2.859
G3 X3.1663 Y-0.017 I0 J2.9105
G3 X3.6526 Y0.1285 I-0.4665 J2.4456
G3 X4.0993 Y0.3695 I-0.9528 J2.3002
G3 X4.5213 Y0.7187 I-1.636 J2.4072
G3 X4.8705 Y1.1407 I-2.0581 J2.0581
G3 X5.1115 Y1.5874 I-2.0591 J1.3994
G3 X5.257 Y2.0737 I-2.3002 J0.9528
G3 X5.3085 Y2.619 I-2.859 J0.5453
G3 X5.257 Y3.1643 I-2.9105 J0
G3 X5.1115 Y3.6506 I-2.4456 J-0.4665
G3 X4.8705 Y4.0973 I-2.3002 J-0.9528
G3 X4.5213 Y4.5193 I-2.4072 J-1.636
G3 X4.0993 Y4.8685 I-2.0581 J-2.0581
G3 X3.6526 Y5.1095 I-1.3994 J-2.0591
G3 X3.1663 Y5.255 I-0.9528 J-2.3002
G3 X2.621 Y5.3065 I-0.5453 J-2.859
G3 X2.0757 Y5.255 I0 J-2.9105
G3 X1.5894 Y5.1095 I0.4665 J-2.4456
G3 X1.1427 Y4.8685 I0.9528 J-2.3002
G3 X0.7207 Y4.5193 I1.636 J-2.4072
G3 X0.3715 Y4.0973 I2.0581 J-2.0581
G3 X0.1305 Y3.6506 I2.0591 J-1.3994
G3 X-0.015 Y3.1643 I2.3002 J-0.9528
G1 Z-1.4 F30
G3 X-0.0665 Y2.619 I2.859 J-0.5453 F60
G3 X-0.015 Y2.0737 I2.9105 J0
G3 X0.1305 Y1.5874 I2.4456 J0.4665
G3 X0.3715 Y1.1407 I2.3002 J0.9528
G3 X0.7207 Y0.7187 I2.4072 J1.636
G3 X1.1427 Y0.3695 I2.0581 J2.0581
G3 X1.5894 Y0.1285 I1.3994 J2.0591
G3 X2.0757 Y-0.017 I0.9528 J2.3002
G3 X2.621 Y-0.0685 I0.5453 J2.859
G3 X3.1663 Y-0.017 I0 J2.9105
G3 X3.6526 Y0.1285 I-0.4665 J2.4456
G3 X4.0993 Y0.3695 I-0.9528 J2.3002
G3 X4.5213 Y0.7187 I-1.636 J2.4072
G3 X4.8705 Y1.1407 I-2.0581 J2.0581
G3 X5.1115 Y1.5874 I-2.0591 J1.3994
G3 X5.257 Y2.0737 I-2.3002 J0.9528
G3 X5.3085 Y2.619 I-2.859 J0.5453
G3 X5.257 Y3.1643 I-2.9105 J0
G3 X5.1115 Y3.6506 I-2.4456 J-0.4665
G3 X4.8705 Y4.0973 I-2.3002 J-0.9528
G3 X4.5213 Y4.5193 I-2.4072 J-1.636
G3 X4.0993 Y4.8685 I-2.0581 J-2.0581
G3 X3.6526 Y5.1095 I-1.3994 J-2.0591
G3 X3.1663 Y5.255 I-0.9528 J-2.3002
G3 X2.621 Y5.3065 I-0.5453 J-2.859
G3 X2.0757 Y5.255 I0 J-2.9105
G3 X1.5894 Y5.1095 I0.4665 J-2.4456
G3 X1.1427 Y4.8685 I0.9528 J-2.3002
G3 X0.7207 Y4.5193 I1.636 J-2.4072
G3 X0.3715 Y4.0973 I2.0581 J-2.0581
G3 X0.1305 Y3.6506 I2.0591 J-1.3994
G3 X-0.015 Y3.1643 I2.3002 J-0.9528
G1 Z-1.5 F30
G3 X-0.0665 Y2.619 I2.859 J-0.5453 F60
G3 X-0.015 Y2.0737 I2.9105 J0
G3 X0.1305 Y1.5874 I2.4456 J0.4665
G3 X0.3715 Y1.1407 I2.3002 J0.9528
G3 X0.7207 Y0.7187 I2.4072 J1.636
G3 X1.1427 Y0.3695 I2.0581 J2.0581
G3 X1.5894 Y0.1285 I1.3994 J2.0591
G3 X2.0757 Y-0.017 I0.9528 J2.3002
G3 X2.621 Y-0.0685 I0.5453 J2.859
G3 X3.1663 Y-0.017 I0 J2.9105
G3 X3.6526 Y0.1285 I-0.4665 J2.4456
G3 X4.0993 Y0.3695 I-0.9528 J2.3002
G3 X4.5213 Y0.7187 I-1.636 J2.4072
G3 X4.8705 Y1.1407 I-2.0581 J2.0581
G3 X5.1115 Y1.5874 I-2.0591 J1.3994
G3 X5.257 Y2.0737 I-2.3002 J0.9528
G3 X5.3085 Y2.619 I-2.859 J0.5453
G3 X5.257 Y3.1643 I-2.9105 J0
G3 X5.1115 Y3.6506 I-2.4456 J-0.4665
G3 X4.8705 Y4.0973 I-2.3002 J-0.9528
G3 X4.5213 Y4.5193 I-2.4072 J-1.636
G3 X4.0993 Y4.8685 I-2.0581 J-2.0581
G3 X3.6526 Y5.1095 I-1.3994 J-2.0591
G3 X3.1663 Y5.255 I-0.9528 J-2.3002
G3 X2.621 Y5.3065 I-0.5453 J-2.859
G3 X2.0757 Y5.255 I0 J-2.9105
G3 X1.5894 Y5.1095 I0.4665 J-2.4456
G3 X1.1427 Y4.8685 I0.9528 J-2.3002
G3 X0.7207 Y4.5193 I1.636 J-2.4072
G3 X0.3715 Y4.0973 I2.0581 J-2.0581
G3 X0.1305 Y3.6506 I2.0591 J-1.3994
G3 X-0.015 Y3.1643 I2.3002 J-0.9528
G0 Z0.125
M5
M30
