(Generated by PartKam Version 0.05)

G20 G90 G40

(letters)
G0 Z0.125
T0 M6
G17
M3
G0 X3.178 Y0.385
G1 Z-0.05 F30
G1 X3.288 Y0.418 F60
G1 X3.166 Y0.827
G1 X3.176 Y0.83
G1 X3.297 Y0.421
G1 X3.408 Y0.453
G1 X3.411 Y0.444
G1 X3.181 Y0.376
G1 X3.178 Y0.385
G0 Z0.125
G0 X2.49 Y0.752
G1 Z-0.05 F30
G1 X2.603 Y0.751 F60
G2 X2.6213 Y0.7493 I0 J-0.0968
G2 X2.6375 Y0.7444 I-0.0156 J-0.0814
G2 X2.6522 Y0.7364 I-0.0318 J-0.0763
G2 X2.666 Y0.725 I-0.0536 J-0.0788
G2 X2.6771 Y0.7114 I-0.0627 J-0.0627
G2 X2.6849 Y0.6966 I-0.0668 J-0.0444
G2 X2.6894 Y0.6809 I-0.0768 J-0.0305
G2 X2.691 Y0.663 I-0.0983 J-0.0179
G1 X2.69 Y0.459
G1 X2.681 Y0.459
G1 X2.682 Y0.663
G3 X2.6805 Y0.6791 I-0.0855 J0
G3 X2.6761 Y0.6936 I-0.0736 J-0.0141
G3 X2.669 Y0.7068 I-0.0688 J-0.0284
G3 X2.659 Y0.719 I-0.0683 J-0.0461
G3 X2.6468 Y0.7296 I-0.0587 J-0.0551
G3 X2.6336 Y0.737 I-0.0411 J-0.0579
G3 X2.6192 Y0.7414 I-0.0282 J-0.0661
G3 X2.603 Y0.743 I-0.0162 J-0.0829
G1 X2.5 Y0.743
G1 X2.498 Y0.46
G1 X2.488 Y0.46
G1 X2.49 Y0.752
G0 Z0.125
G0 X1.907 Y0.631
G1 Z-0.05 F30
G1 X1.916 Y0.627 F60
G1 X1.902 Y0.586
G1 X2.028 Y0.542
G1 X2.122 Y0.809
G1 X2.132 Y0.806
G1 X2.034 Y0.53
G1 X1.889 Y0.581
G1 X1.907 Y0.631
G0 Z0.125
G0 X1.444 Y1.047
G1 Z-0.05 F30
G2 X1.455 Y1.0615 I0.0838 J-0.0519 F60
G2 X1.4674 Y1.0726 I0.0605 J-0.0552
G2 X1.4817 Y1.081 I0.0484 J-0.0666
G2 X1.499 Y1.087 I0.0418 J-0.0921
G2 X1.5168 Y1.0891 I0.0204 J-0.0977
G2 X1.5336 Y1.0879 I0.0022 J-0.0877
G2 X1.5495 Y1.0837 I-0.0149 J-0.0881
G2 X1.566 Y1.076 I-0.0373 J-0.1018
G1 X1.653 Y1.021
G1 X1.727 Y1.14
G1 X1.735 Y1.135
G1 X1.505 Y0.764
G1 X1.409 Y0.823
G2 X1.3947 Y0.8342 I0.0574 J0.0883
G2 X1.3839 Y0.8464 I0.0574 J0.0617
G2 X1.3754 Y0.8612 I0.0646 J0.0469
G2 X1.37 Y0.878 I0.0777 J0.0341
G2 X1.3674 Y0.8959 I0.0887 J0.0222
G2 X1.3684 Y0.9126 I0.0784 J0.0037
G2 X1.3728 Y0.9285 I0.0793 J-0.0134
G2 X1.381 Y0.945 I0.0944 J-0.0368
G1 X1.444 Y1.047
G0 Z0.125
G0 X1.452 Y1.042
G1 Z-0.05 F30
G1 X1.389 Y0.94 F60
G3 X1.3816 Y0.9253 I0.0724 J-0.0457
G3 X1.3776 Y0.9108 I0.0672 J-0.0261
G3 X1.3768 Y0.896 I0.0712 J-0.0116
G3 X1.379 Y0.88 I0.0853 J0.0038
G3 X1.3841 Y0.8648 I0.0837 J0.0199
G3 X1.3916 Y0.8518 I0.0694 J0.031
G3 X1.4016 Y0.8404 I0.0605 J0.0431
G3 X1.414 Y0.831 I0.0531 J0.0573
G1 X1.502 Y0.777
G1 X1.649 Y1.014
G1 X1.561 Y1.068
G3 X1.5459 Y1.0752 I-0.0522 J-0.0902
G3 X1.5321 Y1.079 I-0.027 J-0.0709
G3 X1.5171 Y1.0801 I-0.0127 J-0.0714
G3 X1.501 Y1.078 I0.0027 J-0.0852
G3 X1.486 Y1.0728 I0.0188 J-0.0791
G3 X1.4731 Y1.0653 I0.0301 J-0.0658
G3 X1.4621 Y1.0553 I0.0447 J-0.0605
G3 X1.452 Y1.042 I0.0712 J-0.0647
G0 Z0.125
G0 X0.908 Y1.112
G1 Z-0.05 F30
G1 X0.914 Y1.104 F60
G1 X0.896 Y1.089
G1 X0.889 Y1.096
G1 X0.908 Y1.112
G0 Z0.125
G0 X1.218 Y1.376
G1 Z-0.05 F30
G1 X1.225 Y1.369 F60
G1 X1.005 Y1.182
G1 X0.999 Y1.19
G1 X1.218 Y1.376
G0 Z0.125
G0 X0.909 Y1.847
G1 Z-0.05 F30
G1 X0.914 Y1.838 F60
G1 X0.736 Y1.739
G3 X0.7224 Y1.7303 I0.0344 J-0.0688
G3 X0.7117 Y1.7196 I0.0417 J-0.0522
G3 X0.704 Y1.7074 I0.0544 J-0.0432
G3 X0.698 Y1.692 I0.0806 J-0.0401
G3 X0.6946 Y1.6765 I0.071 J-0.0237
G3 X0.6946 Y1.6613 I0.0686 J-0.0075
G3 X0.6977 Y1.6471 I0.0725 J0.0082
G3 X0.704 Y1.632 I0.0898 J0.0288
G1 X0.755 Y1.541
G1 X1.002 Y1.679
G1 X1.007 Y1.67
G1 X0.751 Y1.528
G1 X0.696 Y1.627
G2 X0.6888 Y1.6438 I0.086 J0.0469
G2 X0.6852 Y1.6603 I0.0795 J0.0257
G2 X0.685 Y1.6766 I0.0858 J0.0095
G2 X0.688 Y1.695 I0.1122 J-0.0089
G2 X0.6948 Y1.7117 I0.0945 J-0.0288
G2 X0.7039 Y1.7256 I0.0746 J-0.0387
G2 X0.7158 Y1.7377 I0.065 J-0.0522
G2 X0.731 Y1.748 I0.0613 J-0.0743
G1 X0.909 Y1.847
G0 Z0.125
G0 X0.702 Y2.381
G1 Z-0.05 F30
G2 X0.7309 Y2.3782 I0.0087 J-0.0607 F60
G2 X0.7535 Y2.363 I-0.0178 J-0.0508
G2 X0.7686 Y2.338 I-0.0613 J-0.0542
G2 X0.781 Y2.291 I-0.2123 J-0.0811
G2 X0.7828 Y2.2693 I-0.1874 J-0.0268
G2 X0.7822 Y2.2448 I-0.2423 J-0.0065
G2 X0.7791 Y2.219 I-0.2699 J0.0201
G2 X0.773 Y2.191 I-0.325 J0.0559
G1 X0.763 Y2.193
G3 X0.7695 Y2.2232 I-0.4492 J0.1123
G3 X0.7727 Y2.2471 I-0.278 J0.0501
G3 X0.7737 Y2.2712 I-0.218 J0.0203
G3 X0.772 Y2.29 I-0.1336 J-0.0023
G3 X0.761 Y2.333 I-0.2177 J-0.0327
G3 X0.7481 Y2.3553 I-0.0695 J-0.0254
G3 X0.7286 Y2.3688 I-0.0349 J-0.0294
G3 X0.704 Y2.371 I-0.0165 J-0.0463
G3 X0.6905 Y2.3673 I0.0096 J-0.0607
G3 X0.6796 Y2.3611 I0.0184 J-0.0454
G3 X0.6707 Y2.3527 I0.0314 J-0.0421
G3 X0.662 Y2.34 I0.0627 J-0.0523
G2 X0.6616 Y2.3389 I-0.2143 J0.0714
G2 X0.6605 Y2.3355 I-1.9681 J0.6674
G3 X0.6525 Y2.3116 I1.7413 J-0.5938
G3 X0.645 Y2.288 I1.6782 J-0.5467
G1 X0.622 Y2.213
G2 X0.6122 Y2.1889 I-0.1258 J0.037
G2 X0.601 Y2.1731 I-0.0643 J0.0339
G2 X0.5861 Y2.1615 I-0.0438 J0.041
G2 X0.568 Y2.155 I-0.0297 J0.0541
G2 X0.5375 Y2.1564 I-0.0114 J0.0818
G2 X0.5169 Y2.1671 I0.0111 J0.0467
G2 X0.5027 Y2.1863 I0.0376 J0.0427
G2 X0.492 Y2.222 I0.126 J0.0571
G2 X0.4898 Y2.2446 I0.1686 J0.0281
G2 X0.4905 Y2.2684 I0.1882 J0.0061
G2 X0.4942 Y2.292 I0.2009 J-0.019
G2 X0.501 Y2.317 I0.2326 J-0.0502
G1 X0.51 Y2.314
G3 X0.5045 Y2.2789 I1.2568 J-0.2139
G3 X0.5017 Y2.2558 I0.5403 J-0.0765
G3 X0.5004 Y2.2328 I0.3043 J-0.0299
G3 X0.501 Y2.223 I0.0561 J-0.0013
G3 X0.5103 Y2.1921 I0.1195 J0.019
G3 X0.5226 Y2.1753 I0.0462 J0.0209
G3 X0.5406 Y2.1658 I0.0274 J0.0306
G3 X0.566 Y2.165 I0.0148 J0.0626
G3 X0.5789 Y2.1687 I-0.0094 J0.0565
G3 X0.5894 Y2.1749 I-0.0183 J0.0434
G3 X0.5981 Y2.1835 I-0.0306 J0.0395
G3 X0.606 Y2.196 I-0.0574 J0.0451
G3 X0.6079 Y2.201 I-0.0619 J0.0265
G3 X0.6121 Y2.2141 I-0.4299 J0.1453
G3 X0.6153 Y2.2247 I-0.8942 J0.2722
G3 X0.622 Y2.248 I-4.3523 J1.2688
G1 X0.638 Y2.298
G1 X0.657 Y2.35
G2 X0.6658 Y2.3619 I0.0629 J-0.037
G2 X0.6757 Y2.3708 I0.044 J-0.0398
G2 X0.6878 Y2.3772 I0.0331 J-0.0473
G2 X0.702 Y2.381 I0.0239 J-0.0612
G0 Z0.125
G0 X0.633 Y2.932
G1 Z-0.05 F30
G1 X0.605 Y2.742 F60
G1 X0.596 Y2.743
G1 X0.624 Y2.933
G1 X0.633 Y2.932
G0 Z0.125
G0 X0.923 Y3.415
G1 Z-0.05 F30
G1 X0.853 Y3.227 F60
G1 X0.646 Y3.493
G3 X0.6364 Y3.5041 I-0.0848 J-0.0636
G3 X0.6257 Y3.5134 I-0.069 J-0.0686
G3 X0.6142 Y3.5208 I-0.0589 J-0.0785
G3 X0.601 Y3.527 I-0.0531 J-0.0965
G3 X0.583 Y3.5319 I-0.0358 J-0.0953
G3 X0.5657 Y3.5333 I-0.0154 J-0.0866
G3 X0.5492 Y3.5313 I0.0019 J-0.0881
G3 X0.532 Y3.526 I0.0214 J-0.0995
G3 X0.5163 Y3.5169 I0.0384 J-0.0844
G3 X0.5037 Y3.5058 I0.0469 J-0.0655
G3 X0.4936 Y3.4918 I0.0592 J-0.054
G3 X0.486 Y3.475 I0.0793 J-0.0458
G3 X0.4794 Y3.4467 I0.1016 J-0.0385
G3 X0.481 Y3.4219 I0.0797 J-0.0075
G3 X0.4903 Y3.3983 I0.08 J0.0178
G3 X0.509 Y3.374 I0.1036 J0.0606
G1 X0.513 Y3.369
G1 X0.517 Y3.366
G1 X0.511 Y3.358
G2 X0.4985 Y3.3694 I0.0663 J0.0853
G2 X0.4884 Y3.3821 I0.0734 J0.0688
G2 X0.4804 Y3.3962 I0.0867 J0.0582
G2 X0.474 Y3.413 I0.1161 J0.054
G2 X0.4702 Y3.4295 I0.0958 J0.0305
G2 X0.4694 Y3.446 I0.0944 J0.0132
G2 X0.4712 Y3.4621 I0.0986 J-0.0034
G2 X0.476 Y3.479 I0.1146 J-0.023
G2 X0.4851 Y3.4977 I0.1012 J-0.0375
G2 X0.4967 Y3.513 I0.0783 J-0.0478
G2 X0.5107 Y3.525 I0.067 J-0.0634
G2 X0.528 Y3.535 I0.0628 J-0.0892
G2 X0.5462 Y3.5406 I0.0381 J-0.0914
G2 X0.5652 Y3.5426 I0.02 J-0.0977
G2 X0.584 Y3.5411 I0.001 J-0.1054
G2 X0.604 Y3.536 I-0.0212 J-0.124
G2 X0.6191 Y3.5291 I-0.0452 J-0.1186
G2 X0.632 Y3.5209 I-0.0506 J-0.0937
G2 X0.6434 Y3.511 I-0.0625 J-0.0842
G2 X0.654 Y3.499 I-0.0835 J-0.084
G1 X0.851 Y3.246
G1 X0.915 Y3.418
G1 X0.923 Y3.415
G0 Z0.125
G0 X1.094 Y4.018
G1 Z-0.05 F30
G2 X1.1088 Y4.003 I-0.2272 J-0.2391 F60
G2 X1.1239 Y3.9858 I-0.2869 J-0.2658
G2 X1.1385 Y3.967 I-0.3265 J-0.2687
G2 X1.153 Y3.946 I-0.3935 J-0.2883
G2 X1.168 Y3.9222 I-0.2876 J-0.1977
G2 X1.1789 Y3.901 I-0.2192 J-0.126
G2 X1.187 Y3.8804 I-0.1964 J-0.0894
G2 X1.192 Y3.862 I-0.1517 J-0.051
G2 X1.1927 Y3.8456 I-0.0877 J-0.012
G2 X1.1905 Y3.8319 I-0.0641 J0.0032
G2 X1.1853 Y3.819 I-0.0582 J0.0159
G2 X1.177 Y3.807 I-0.0595 J0.0323
G2 X1.1557 Y3.7927 I-0.041 J0.038
G2 X1.1256 Y3.7876 I-0.0278 J0.0738
G2 X1.0938 Y3.7926 I0.0036 J0.1272
G2 X1.045 Y3.811 I0.0931 J0.3213
G2 X1.0205 Y3.8239 I0.1901 J0.3922
G2 X0.9986 Y3.8373 I0.183 J0.3233
G2 X0.9774 Y3.8524 I0.1891 J0.2862
G2 X0.959 Y3.868 I0.1805 J0.2327
G1 X0.933 Y3.891
G2 X0.9172 Y3.9059 I0.1677 J0.1941
G2 X0.9015 Y3.9233 I0.212 J0.2071
G2 X0.8872 Y3.9417 I0.2472 J0.206
G2 X0.873 Y3.963 I0.3122 J0.2238
G2 X0.8578 Y3.9879 I0.3562 J0.2337
G2 X0.8476 Y4.0081 I0.2235 J0.1257
G2 X0.8393 Y4.03 I0.1817 J0.082
G2 X0.835 Y4.048 I0.1196 J0.0379
G2 X0.8337 Y4.0636 I0.0733 J0.014
G2 X0.8356 Y4.0773 I0.0586 J-0.0013
G2 X0.8406 Y4.0899 I0.0554 J-0.0146
G2 X0.849 Y4.102 I0.0594 J-0.0321
G2 X0.8704 Y4.1163 I0.0407 J-0.0377
G2 X0.9008 Y4.1213 I0.0277 J-0.0744
G2 X0.933 Y4.1159 I-0.0043 J-0.1262
G2 X0.981 Y4.097 I-0.0913 J-0.302
G2 X1.005 Y4.085 I-0.152 J-0.3344
G2 X1.0275 Y4.0716 I-0.1689 J-0.3095
G2 X1.0484 Y4.057 I-0.1886 J-0.2918
G2 X1.068 Y4.041 I-0.2055 J-0.2718
G1 X1.094 Y4.018
G0 Z0.125
G0 X1.087 Y4.01
G1 Z-0.05 F30
G1 X1.061 Y4.034 F60
G3 X1.0434 Y4.0488 I-0.1822 J-0.1995
G3 X1.0228 Y4.0634 I-0.1994 J-0.2596
G3 X1.0017 Y4.0761 I-0.2002 J-0.3072
G3 X0.977 Y4.089 I-0.2305 J-0.4115
G3 X0.932 Y4.1064 I-0.1401 J-0.2952
G3 X0.9026 Y4.1116 I-0.0363 J-0.1195
G3 X0.8747 Y4.1079 I-0.0042 J-0.0746
G3 X0.856 Y4.096 I0.0147 J-0.0438
G3 X0.8459 Y4.0762 I0.0342 J-0.0299
G3 X0.845 Y4.048 I0.0717 J-0.0164
G3 X0.8534 Y4.0191 I0.1215 J0.0198
G3 X0.876 Y3.976 I0.2939 J0.1266
G3 X0.8909 Y3.9532 I0.3742 J0.2293
G3 X0.906 Y3.9333 I0.3035 J0.213
G3 X0.9224 Y3.9144 I0.2665 J0.2153
G3 X0.939 Y3.898 I0.2171 J0.2033
G1 X0.965 Y3.875
G3 X0.9814 Y3.8613 I0.1803 J0.1993
G3 X1.0008 Y3.8475 I0.2007 J0.2609
G3 X1.0214 Y3.8349 I0.1956 J0.2962
G3 X1.044 Y3.823 I0.1943 J0.343
G3 X1.0914 Y3.8029 I0.1573 J0.3048
G3 X1.122 Y3.7966 I0.0403 J0.1191
G3 X1.151 Y3.8003 I0.0056 J0.0722
G3 X1.17 Y3.813 I-0.0144 J0.0421
G3 X1.1804 Y3.832 I-0.0302 J0.0289
G3 X1.1815 Y3.8603 I-0.0692 J0.0168
G3 X1.1733 Y3.8887 I-0.1243 J-0.0202
G3 X1.151 Y3.933 I-0.3248 J-0.1362
G3 X1.1362 Y3.9554 I-0.3212 J-0.1969
G3 X1.1205 Y3.9756 I-0.2793 J-0.1998
G3 X1.1038 Y3.9941 I-0.2487 J-0.2077
G3 X1.087 Y4.01 I-0.201 J-0.1958
G0 Z0.125
G0 X1.597 Y4.187
G1 Z-0.05 F30
G1 X1.589 Y4.182 F60
G1 X1.351 Y4.528
G1 X1.329 Y4.405
G1 X1.319 Y4.407
G1 X1.343 Y4.536
G1 X1.353 Y4.543
G1 X1.597 Y4.187
G0 Z0.125
G0 X2.124 Y4.52
G1 Z-0.05 F30
G1 X2.059 Y4.501 F60
G1 X2.085 Y4.414
G1 X2.076 Y4.411
G1 X2.05 Y4.499
G1 X1.888 Y4.45
G1 X1.884 Y4.806
G1 X1.894 Y4.806
G1 X1.897 Y4.463
G1 X2.048 Y4.508
G1 X2.022 Y4.595
G1 X2.031 Y4.598
G1 X2.057 Y4.511
G1 X2.121 Y4.53
G1 X2.124 Y4.52
G0 Z0.125
G0 X2.673 Y4.487
G1 Z-0.05 F30
G1 X2.601 Y4.487 F60
G2 X2.5717 Y4.4892 I0 J0.1926
G2 X2.5483 Y4.4951 I0.0198 J0.1286
G2 X2.527 Y4.5052 I0.0378 J0.1071
G2 X2.509 Y4.519 I0.0547 J0.09
G2 X2.4947 Y4.5369 I0.0735 J0.0735
G2 X2.4841 Y4.5583 I0.0955 J0.0605
G2 X2.4779 Y4.5814 I0.1235 J0.0456
G2 X2.475 Y4.611 I0.2007 J0.0347
G1 X2.475 Y4.802
G2 X2.4766 Y4.8308 I0.1742 J0.0045
G2 X2.4824 Y4.8544 I0.1227 J-0.0173
G2 X2.4927 Y4.876 I0.1032 J-0.0361
G2 X2.507 Y4.894 I0.0853 J-0.053
G2 X2.5248 Y4.9082 I0.0716 J-0.0716
G2 X2.5466 Y4.9189 I0.0618 J-0.0984
G2 X2.5699 Y4.9251 I0.0465 J-0.1272
G2 X2.599 Y4.928 I0.0342 J-0.1963
G1 X2.671 Y4.928
G1 X2.671 Y4.918
G1 X2.599 Y4.918
G3 X2.5715 Y4.9159 I0 J-0.1828
G3 X2.5498 Y4.9105 I0.0181 J-0.119
G3 X2.5296 Y4.9008 I0.0331 J-0.0944
G3 X2.514 Y4.888 I0.0432 J-0.0686
G3 X2.5011 Y4.8717 I0.0627 J-0.0627
G3 X2.4915 Y4.8514 I0.0889 J-0.0546
G3 X2.4861 Y4.8295 I0.116 J-0.0404
G3 X2.484 Y4.802 I0.1808 J-0.0275
G1 X2.485 Y4.611
G3 X2.4856 Y4.5972 I0.1715 J0
G3 X2.4871 Y4.5846 I0.1451 J0.0117
G3 X2.4896 Y4.573 I0.1355 J0.0229
G3 X2.493 Y4.562 I0.1255 J0.0326
G3 X2.4972 Y4.552 I0.0887 J0.0317
G3 X2.5026 Y4.5425 I0.0852 J0.0421
G3 X2.5088 Y4.534 I0.0816 J0.0527
G3 X2.516 Y4.526 I0.0806 J0.0653
G3 X2.524 Y4.5188 I0.0734 J0.0734
G3 X2.5325 Y4.5126 I0.0612 J0.0755
G3 X2.542 Y4.5072 I0.0516 J0.0798
G3 X2.552 Y4.503 I0.0417 J0.0844
G3 X2.5623 Y4.5 I0.0318 J0.089
G3 X2.575 Y4.4976 I0.0313 J0.1339
G3 X2.5869 Y4.4964 I0.0222 J0.1627
G3 X2.601 Y4.496 I0.0141 J0.2249
G1 X2.673 Y4.496
G1 X2.673 Y4.487
G0 Z0.125
G0 X3.232 Y4.393
G1 Z-0.05 F30
G1 X3.222 Y4.395 F60
G1 X3.28 Y4.591
G3 X3.2836 Y4.6069 I-0.0775 J0.0258
G3 X3.2838 Y4.6218 I-0.0667 J0.0081
G3 X3.2807 Y4.6362 I-0.0665 J-0.0067
G3 X3.274 Y4.651 I-0.0758 J-0.0253
G3 X3.2653 Y4.6646 I-0.0688 J-0.0344
G3 X3.2546 Y4.6753 I-0.0522 J-0.0417
G3 X3.2424 Y4.683 I-0.0432 J-0.0544
G3 X3.227 Y4.689 I-0.0401 J-0.0806
G1 X3.128 Y4.719
G1 X3.047 Y4.447
G1 X3.038 Y4.45
G1 X3.161 Y4.864
G1 X3.171 Y4.861
G1 X3.131 Y4.728
G1 X3.23 Y4.698
G2 X3.2466 Y4.6913 I-0.0291 J-0.0955
G2 X3.2606 Y4.6823 I-0.0396 J-0.077
G2 X3.2728 Y4.6706 I-0.0531 J-0.0673
G2 X3.283 Y4.656 I-0.0726 J-0.0619
G2 X3.2899 Y4.6388 I-0.0991 J-0.0496
G2 X3.2933 Y4.6224 I-0.0859 J-0.0262
G2 X3.2934 Y4.6051 I-0.0843 J-0.0093
G2 X3.29 Y4.588 I-0.0866 J0.0082
G1 X3.232 Y4.393
G0 Z0.125
G0 X3.73 Y4.13
G1 Z-0.05 F30
G1 X3.629 Y4.192 F60
G2 X3.6183 Y4.1996 I0.0748 J0.1164
G2 X3.6098 Y4.2071 I0.0651 J0.0829
G2 X3.6014 Y4.2164 I0.0657 J0.0671
G2 X3.595 Y4.226 I0.063 J0.0493
G2 X3.5873 Y4.244 I0.0589 J0.0358
G2 X3.5853 Y4.2624 I0.0595 J0.0159
G2 X3.5886 Y4.2807 I0.067 J-0.0027
G2 X3.598 Y4.301 I0.0914 J-0.0302
G2 X3.6119 Y4.3188 I0.0864 J-0.0532
G2 X3.6264 Y4.33 I0.0478 J-0.0468
G2 X3.6435 Y4.3366 I0.03 J-0.0522
G2 X3.663 Y4.338 I0.0145 J-0.0662
G2 X3.6744 Y4.3365 I-0.0059 J-0.0879
G2 X3.6861 Y4.3334 I-0.0191 J-0.0956
G2 X3.6979 Y4.3286 I-0.0328 J-0.0985
G2 X3.71 Y4.322 I-0.0519 J-0.1089
G1 X3.802 Y4.265
G1 X3.829 Y4.309
G3 X3.8387 Y4.3291 I-0.0914 J0.0562
G3 X3.8426 Y4.3471 I-0.0689 J0.0246
G3 X3.8418 Y4.3652 I-0.0661 J0.006
G3 X3.836 Y4.383 I-0.0701 J-0.013
G3 X3.8291 Y4.3954 I-0.0741 J-0.0329
G3 X3.8196 Y4.4073 I-0.0762 J-0.0515
G3 X3.8091 Y4.417 I-0.0766 J-0.0726
G3 X3.795 Y4.427 I-0.0961 J-0.1198
G1 X3.734 Y4.465
G1 X3.739 Y4.473
G1 X3.8 Y4.435
G2 X3.8144 Y4.425 I-0.066 J-0.1101
G2 X3.8261 Y4.414 I-0.0677 J-0.0842
G2 X3.8362 Y4.4011 I-0.0752 J-0.0693
G2 X3.844 Y4.387 I-0.0832 J-0.0551
G2 X3.8509 Y4.3668 I-0.0722 J-0.0361
G2 X3.8521 Y4.3466 I-0.0712 J-0.0143
G2 X3.8478 Y4.3265 I-0.0792 J0.0064
G2 X3.837 Y4.304 I-0.1098 J0.039
G1 X3.73 Y4.13
G0 Z0.125
G0 X3.726 Y4.142
G1 Z-0.05 F30
G1 X3.796 Y4.257 F60
G1 X3.705 Y4.314
G3 X3.6718 Y4.3281 I-0.0657 J-0.1087
G3 X3.6484 Y4.329 I-0.0138 J-0.0519
G3 X3.6274 Y4.3196 I0.0087 J-0.0476
G3 X3.606 Y4.296 I0.0568 J-0.073
G3 X3.5977 Y4.2781 I0.0751 J-0.0457
G3 X3.5948 Y4.2623 I0.0555 J-0.0185
G3 X3.5964 Y4.2463 I0.0542 J-0.0025
G3 X3.603 Y4.23 I0.0637 J0.0163
G3 X3.608 Y4.2219 I0.0473 J0.0236
G3 X3.6155 Y4.2134 I0.0593 J0.0446
G3 X3.6233 Y4.2066 I0.0642 J0.0658
G3 X3.634 Y4.199 I0.0901 J0.1159
G1 X3.726 Y4.142
G0 Z0.125
G0 X4.186 Y3.657
G1 Z-0.05 F30
G1 X4.181 Y3.665 F60
G1 X4.341 Y3.79
G3 X4.3534 Y3.8015 I-0.0585 J0.0753
G3 X4.3621 Y3.8135 I-0.0546 J0.0491
G3 X4.3683 Y3.827 I-0.0621 J0.0364
G3 X4.372 Y3.843 I-0.083 J0.0278
G3 X4.3721 Y3.8596 I-0.0968 J0.0088
G3 X4.3695 Y3.8739 I-0.0731 J-0.0059
G3 X4.3639 Y3.8877 I-0.0676 J-0.0193
G3 X4.355 Y3.901 I-0.0714 J-0.0382
G1 X4.322 Y3.945
G1 X4.098 Y3.771
G1 X4.092 Y3.778
G1 X4.316 Y3.952
G1 X4.233 Y4.058
G1 X4.01 Y3.884
G1 X4.004 Y3.892
G1 X4.234 Y4.072
G1 X4.363 Y3.907
G2 X4.3727 Y3.892 I-0.0726 J-0.0573
G2 X4.3788 Y3.8764 I-0.0725 J-0.0373
G2 X4.3815 Y3.8599 I-0.0791 J-0.0218
G2 X4.381 Y3.842 I-0.0944 J-0.0062
G2 X4.377 Y3.8238 I-0.0973 J0.0117
G2 X4.3704 Y3.8088 I-0.0736 J0.0235
G2 X4.3607 Y3.7955 I-0.0668 J0.0385
G2 X4.347 Y3.783 I-0.0721 J0.0655
G1 X4.186 Y3.657
G0 Z0.125
G0 X4.499 Y3.168
G1 Z-0.05 F30
G2 X4.4814 Y3.1644 I-0.0276 J0.0906 F60
G2 X4.4648 Y3.1644 I-0.0086 J0.0808
G2 X4.4482 Y3.1679 I0.0079 J0.079
G2 X4.432 Y3.175 I0.0266 J0.0819
G2 X4.4171 Y3.1854 I0.0505 J0.0883
G2 X4.4057 Y3.197 I0.0528 J0.063
G2 X4.3967 Y3.211 I0.0636 J0.0509
G2 X4.39 Y3.228 I0.0876 J0.0445
G1 X4.36 Y3.327
G1 X4.226 Y3.287
G1 X4.224 Y3.296
G1 X4.642 Y3.421
G1 X4.674 Y3.312
G2 X4.6776 Y3.2944 I-0.0906 J-0.0276
G2 X4.6776 Y3.2778 I-0.0808 J-0.0086
G2 X4.6741 Y3.2612 I-0.079 J0.0079
G2 X4.667 Y3.245 I-0.0819 J0.0266
G2 X4.6574 Y3.2299 I-0.0767 J0.0384
G2 X4.6454 Y3.2179 I-0.0601 J0.0479
G2 X4.6314 Y3.2089 I-0.0501 J0.0624
G2 X4.614 Y3.202 I-0.0458 J0.0906
G1 X4.499 Y3.168
G0 Z0.125
G0 X4.497 Y3.177
G1 Z-0.05 F30
G1 X4.612 Y3.211 F60
G3 X4.6275 Y3.2176 I-0.0329 J0.0988
G3 X4.6396 Y3.2255 I-0.036 J0.0686
G3 X4.6504 Y3.2361 I-0.0447 J0.0563
G3 X4.659 Y3.249 I-0.0585 J0.0482
G3 X4.6657 Y3.2645 I-0.078 J0.0429
G3 X4.6688 Y3.2791 I-0.0664 J0.0215
G3 X4.6686 Y3.2941 I-0.068 J0.0067
G3 X4.665 Y3.31 I-0.0808 J-0.0098
G1 X4.636 Y3.409
G1 X4.369 Y3.329
G1 X4.398 Y3.231
G3 X4.4039 Y3.2161 I0.0801 J0.0229
G3 X4.4121 Y3.2033 I0.0675 J0.0344
G3 X4.4226 Y3.1924 I0.0606 J0.0483
G3 X4.436 Y3.183 I0.0594 J0.0701
G3 X4.4507 Y3.177 I0.0388 J0.0736
G3 X4.4658 Y3.174 I0.0227 J0.075
G3 X4.4811 Y3.174 I0.0077 J0.0792
G3 X4.497 Y3.177 I-0.0085 J0.0884
G0 Z0.125
G0 X4.895 Y2.81
G1 Z-0.05 F30
G1 X4.894 Y2.819 F60
G1 X4.918 Y2.821
G1 X4.919 Y2.811
G1 X4.895 Y2.81
G0 Z0.125
G0 X4.488 Y2.779
G1 Z-0.05 F30
G1 X4.487 Y2.788 F60
G1 X4.774 Y2.81
G1 X4.775 Y2.8
G1 X4.488 Y2.779
G0 Z0.125
G0 X4.548 Y2.202
G1 Z-0.05 F30
G2 X4.5286 Y2.2069 I0.0147 J0.0989 F60
G2 X4.5114 Y2.2153 I0.0314 J0.0867
G2 X4.4964 Y2.2268 I0.0497 J0.0801
G2 X4.483 Y2.242 I0.075 J0.0796
G2 X4.4727 Y2.26 I0.0958 J0.0666
G2 X4.4665 Y2.278 I0.0892 J0.0409
G2 X4.4639 Y2.2968 I0.0939 J0.0225
G2 X4.465 Y2.317 I0.1089 J0.0042
G2 X4.4699 Y2.337 I0.1036 J-0.0148
G2 X4.4782 Y2.3546 I0.0893 J-0.0315
G2 X4.4896 Y2.3698 I0.0838 J-0.0508
G2 X4.505 Y2.384 I0.0891 J-0.0812
G2 X4.5225 Y2.3943 I0.0615 J-0.0846
G2 X4.5403 Y2.4004 I0.038 J-0.0819
G2 X4.5592 Y2.4027 I0.0204 J-0.0886
G2 X4.58 Y2.401 I0.0017 J-0.1086
G1 X4.674 Y2.387
G2 X4.6945 Y2.3815 I-0.0217 J-0.1218
G2 X4.7115 Y2.3734 I-0.0333 J-0.0916
G2 X4.7267 Y2.3619 I-0.0481 J-0.0799
G2 X4.74 Y2.347 I-0.0695 J-0.0751
G2 X4.7503 Y2.3289 I-0.0953 J-0.0663
G2 X4.7565 Y2.3109 I-0.0892 J-0.0407
G2 X4.7591 Y2.2919 I-0.0955 J-0.0227
G2 X4.758 Y2.271 I-0.1165 J-0.0044
G2 X4.7531 Y2.2516 I-0.0989 J0.0147
G2 X4.7448 Y2.2344 I-0.0867 J0.0314
G2 X4.7332 Y2.2194 I-0.0801 J0.0497
G2 X4.718 Y2.206 I-0.0796 J0.075
G2 X4.7 Y2.1952 I-0.0669 J0.0905
G2 X4.682 Y2.1886 I-0.0408 J0.0845
G2 X4.6633 Y2.1859 I-0.0226 J0.0902
G2 X4.643 Y2.187 I-0.0045 J0.1078
G1 X4.548 Y2.202
G0 Z0.125
G0 X4.55 Y2.212
G1 Z-0.05 F30
G1 X4.644 Y2.197 F60
G3 X4.6629 Y2.1957 I0.0164 J0.1023
G3 X4.6799 Y2.1979 I-0.0021 J0.0847
G3 X4.6963 Y2.2036 I-0.0184 J0.0798
G3 X4.712 Y2.213 I-0.0383 J0.0814
G3 X4.7263 Y2.2254 I-0.0574 J0.0804
G3 X4.7369 Y2.2393 I-0.0606 J0.0574
G3 X4.7443 Y2.2547 I-0.0717 J0.0439
G3 X4.749 Y2.273 I-0.0955 J0.0343
G3 X4.7501 Y2.2916 I-0.0933 J0.0149
G3 X4.7476 Y2.3089 I-0.0837 J-0.0032
G3 X4.7417 Y2.3251 I-0.0819 J-0.0207
G3 X4.732 Y2.341 I-0.0878 J-0.0427
G3 X4.7196 Y2.3547 I-0.0794 J-0.0595
G3 X4.7057 Y2.365 I-0.0582 J-0.0637
G3 X4.6902 Y2.3724 I-0.0447 J-0.0745
G3 X4.672 Y2.377 I-0.0344 J-0.0966
G1 X4.578 Y2.392
G3 X4.5596 Y2.3931 I-0.0151 J-0.0943
G3 X4.5421 Y2.3908 I0.003 J-0.0872
G3 X4.5259 Y2.3851 I0.0209 J-0.0864
G3 X4.51 Y2.376 I0.0426 J-0.0927
G3 X4.4957 Y2.3636 I0.0574 J-0.0804
G3 X4.4851 Y2.3498 I0.0606 J-0.0574
G3 X4.4777 Y2.3343 I0.0717 J-0.0439
G3 X4.473 Y2.316 I0.0955 J-0.0343
G3 X4.4719 Y2.2974 I0.0933 J-0.0149
G3 X4.4744 Y2.2801 I0.0837 J0.0032
G3 X4.4803 Y2.2639 I0.0819 J0.0207
G3 X4.49 Y2.248 I0.0878 J0.0427
G3 X4.5024 Y2.2343 I0.0794 J0.0595
G3 X4.5163 Y2.224 I0.0582 J0.0637
G3 X4.5318 Y2.2166 I0.0447 J0.0745
G3 X4.55 Y2.212 I0.0344 J0.0966
G0 Z0.125
G0 X4.248 Y1.693
G1 Z-0.05 F30
G1 X4.253 Y1.702 F60
G1 X4.433 Y1.606
G3 X4.4476 Y1.5994 I0.0405 J0.0699
G3 X4.4622 Y1.5961 I0.0225 J0.0666
G3 X4.477 Y1.596 I0.008 J0.0714
G3 X4.493 Y1.599 I-0.0082 J0.0879
G3 X4.5081 Y1.6056 I-0.0297 J0.0892
G3 X4.5206 Y1.614 I-0.0374 J0.0688
G3 X4.5313 Y1.6248 I-0.0482 J0.0584
G3 X4.54 Y1.638 I-0.0631 J0.051
G1 X4.589 Y1.729
G1 X4.339 Y1.863
G1 X4.343 Y1.871
G1 X4.602 Y1.733
G1 X4.548 Y1.633
G2 X4.5384 Y1.6183 I-0.0801 J0.042
G2 X4.5265 Y1.6063 I-0.0655 J0.0526
G2 X4.5124 Y1.5968 I-0.0537 J0.0648
G2 X4.496 Y1.59 I-0.043 J0.0807
G2 X4.4777 Y1.5864 I-0.029 J0.0996
G2 X4.4613 Y1.5864 I-0.0084 J0.0806
G2 X4.4449 Y1.5898 I0.0079 J0.0793
G2 X4.428 Y1.597 I0.0295 J0.0923
G1 X4.248 Y1.693
G0 Z0.125
G0 X3.947 Y1.208
G1 Z-0.05 F30
G2 X3.9308 Y1.2323 I0.04 J0.0442 F60
G2 X3.9288 Y1.2595 I0.0493 J0.0175
G2 X3.9392 Y1.2867 I0.0806 J-0.0153
G2 X3.969 Y1.326 I0.2019 J-0.1222
G2 X3.9844 Y1.3403 I0.1245 J-0.1183
G2 X4.0043 Y1.355 I0.15 J-0.1823
G2 X4.0264 Y1.3682 I0.1512 J-0.2288
G2 X4.053 Y1.381 I0.1701 J-0.3189
G1 X4.057 Y1.372
G3 X4.0288 Y1.3583 I0.2054 J-0.4592
G3 X4.0081 Y1.3464 I0.1364 J-0.2601
G3 X3.9885 Y1.3324 I0.1191 J-0.1881
G3 X3.975 Y1.32 I0.0809 J-0.1016
G3 X3.9481 Y1.284 I0.1729 J-0.1576
G3 X3.9385 Y1.26 I0.0662 J-0.0403
G3 X3.9397 Y1.2358 I0.0458 J-0.0098
G3 X3.953 Y1.215 I0.0464 J0.015
G3 X3.9645 Y1.2071 I0.0441 J0.0514
G3 X3.9758 Y1.2025 I0.0249 J0.0453
G3 X3.9884 Y1.2007 I0.0136 J0.0498
G3 X4.003 Y1.202 I0.0012 J0.0681
G3 X4.0073 Y1.203 I-0.0057 J0.0341
G3 X4.0204 Y1.2073 I-0.0962 J0.3184
G3 X4.0325 Y1.2116 I-0.2343 J0.6736
G3 X4.055 Y1.22 I-0.8531 J2.3167
G1 X4.128 Y1.248
G2 X4.1533 Y1.2552 I0.0493 J-0.1252
G2 X4.1728 Y1.2561 I0.0132 J-0.0728
G2 X4.1915 Y1.2513 I-0.005 J-0.0584
G2 X4.207 Y1.241 I-0.0221 J-0.0501
G2 X4.2251 Y1.2162 I-0.0566 J-0.0604
G2 X4.2296 Y1.1935 I-0.0425 J-0.0203
G2 X4.2234 Y1.1706 I-0.0562 J0.0029
G2 X4.202 Y1.14 I-0.1245 J0.0643
G2 X4.1845 Y1.1238 I-0.1384 J0.1324
G2 X4.1651 Y1.11 I-0.1199 J0.1474
G2 X4.144 Y1.0985 I-0.1042 J0.167
G2 X4.12 Y1.089 I-0.0958 J0.2058
G1 X4.117 Y1.098
G3 X4.1484 Y1.1154 I-0.5995 J1.1208
G3 X4.1684 Y1.1274 I-0.2655 J0.4643
G3 X4.1868 Y1.14 I-0.1652 J0.2618
G3 X4.195 Y1.147 I-0.0425 J0.0577
G3 X4.2134 Y1.1729 I-0.0853 J0.08
G3 X4.2189 Y1.1928 I-0.0438 J0.0228
G3 X4.2152 Y1.2126 I-0.0416 J0.0025
G3 X4.2 Y1.234 I-0.064 J-0.0293
G3 X4.1895 Y1.2416 I-0.0362 J-0.0393
G3 X4.1781 Y1.246 I-0.0225 J-0.0411
G3 X4.1659 Y1.2475 I-0.0122 J-0.0495
G3 X4.151 Y1.246 I0 J-0.0761
G3 X4.1459 Y1.2444 I0.0263 J-0.0919
G3 X4.1334 Y1.2399 I0.1925 J-0.5539
G3 X4.1214 Y1.2353 I0.4053 J-1.0863
G3 X4.1 Y1.227 I1.3428 J-3.4809
G1 X4.051 Y1.209
G1 X3.999 Y1.191
G2 X3.9843 Y1.1905 I-0.0097 J0.0647
G2 X3.9711 Y1.1931 I0.0042 J0.0548
G2 X3.9592 Y1.1987 I0.0181 J0.0543
G2 X3.947 Y1.208 I0.0406 J0.0658
G0 Z0.125
G0 X3.541 Y0.83
G1 Z-0.05 F30
G1 X3.709 Y0.922 F60
G1 X3.714 Y0.914
G1 X3.545 Y0.822
G1 X3.541 Y0.83
G0 Z0.125
M5
M30
