(Generated by PartKam Version 0.05)

G20 G90 G40

(head)
G0 Z0.125 F1
T0 M6
G17
M3
G0 X2.996 Y1.7815
G1 Z-0.05 F1
G3 X2.9894 Y1.7754 I0.0113 J-0.0186 F60
G3 X2.9867 Y1.7689 I0.0137 J-0.0096
G3 X2.9863 Y1.7654 I0.0216 J-0.0041
G3 X2.9869 Y1.7641 I0.2206 J0.0954
G3 X2.9904 Y1.7564 I0.257 J0.113
G3 X2.9921 Y1.7546 I0.1865 J0.1814
G3 X2.9975 Y1.75 I0.0398 J0.0401
G3 X3.0039 Y1.7496 I0.0064 J0.0519
G3 X3.009 Y1.7499 I0 J0.0429
G3 X3.0158 Y1.7557 I-0.0403 J0.0547
G1 X3.0154 Y1.7553
G3 X3.0168 Y1.7567 I-0.1717 J0.1743
G3 X3.0188 Y1.761 I-0.1409 J0.0657
G3 X3.0194 Y1.7624 I-0.2442 J0.1049
G3 X3.0194 Y1.7638 I-0.2024 J0.0014
G3 X3.0194 Y1.7668 I-0.2024 J0
G3 X3.0192 Y1.7726 I-0.1933 J-0.0028
G3 X3.0164 Y1.7764 I-0.0355 J-0.0226
G3 X3.0117 Y1.7813 I-0.0307 J-0.0248
G3 X3.0073 Y1.7831 I-0.0197 J-0.043
G3 X3.0023 Y1.7846 I-0.0219 J-0.0642
G3 X2.996 Y1.7815 I0.0135 J-0.0358
G1 X2.9702 Y1.8243 F60
G3 X2.9485 Y1.8041 I0.0371 J-0.0614 F60
G3 X2.9376 Y1.7782 I0.0547 J-0.0383
G3 X2.9363 Y1.7648 I0.0707 J-0.0134
G3 X2.9372 Y1.7532 I0.072 J0
G3 X2.9411 Y1.744 I0.2696 J0.1076
G3 X2.9458 Y1.7338 I0.3028 J0.1331
G3 X2.949 Y1.7274 I0.1726 J0.083
G3 X2.9569 Y1.7192 I0.2278 J0.2104
G3 X2.9718 Y1.7068 I0.0751 J0.0756
G3 X2.9782 Y1.7034 I0.0199 J0.0291
G3 X2.9851 Y1.7013 I0.0132 J0.0318
G3 X3.0039 Y1.6996 I0.0188 J0.1006
G3 X3.0211 Y1.7012 I0 J0.0929
G3 X3.0279 Y1.7032 I-0.0064 J0.0341
G3 X3.0349 Y1.707 I-0.015 J0.0362
G3 X3.0505 Y1.7197 I-0.0663 J0.0976
G3 X3.0582 Y1.7275 I-0.2068 J0.2099
G3 X3.0611 Y1.7333 I-0.1759 J0.0919
G3 X3.0647 Y1.7413 I-0.1852 J0.089
G3 X3.0691 Y1.752 I-0.2902 J0.1246
G3 X3.0694 Y1.7638 I-0.2521 J0.0118
G3 X3.0694 Y1.7675 I-0.2524 J0
G3 X3.0684 Y1.7854 I-0.2432 J-0.0035
G3 X3.0655 Y1.7923 I-0.0482 J-0.0166
G3 X3.0553 Y1.8078 I-0.0818 J-0.0424
G3 X3.0426 Y1.8207 I-0.0696 J-0.0562
G3 X3.0355 Y1.8253 I-0.0258 J-0.0314
G3 X3.0234 Y1.8304 I-0.0435 J-0.087
G3 X3.0086 Y1.8344 I-0.0381 J-0.1116
G3 X3.0002 Y1.8356 I-0.0161 J-0.0802
G3 X2.9966 Y1.8359 I-0.0077 J-0.0814
G3 X3.0036 Y1.8362 I0.0019 J0.0375
G3 X3.0002 Y1.8356 I0.0122 J-0.0875
G3 X2.9702 Y1.8243 I0.0156 J-0.0869
G1 X2.9443 Y1.8671 F60
G3 X2.9075 Y1.8327 I0.063 J-0.1042 F60
G3 X2.8884 Y1.7876 I0.0957 J-0.067
G3 X2.8863 Y1.7648 I0.1199 J-0.0228
G3 X2.889 Y1.7394 I0.122 J0
G3 X2.8907 Y1.7349 I0.1674 J0.0616
G3 X2.8953 Y1.7238 I0.3162 J0.1258
G3 X2.9007 Y1.7121 I0.3486 J0.1532
G3 X2.908 Y1.6982 I0.2176 J0.1047
G3 X2.9217 Y1.6837 I0.2689 J0.2396
G3 X2.9436 Y1.6656 I0.1103 J0.1111
G3 X2.959 Y1.6572 I0.0481 J0.0704
G3 X2.9759 Y1.6522 I0.0324 J0.078
G3 X3.0039 Y1.6496 I0.028 J0.1497
G3 X3.0303 Y1.652 I0 J0.1429
G3 X3.0471 Y1.657 I-0.0157 J0.0832
G3 X3.063 Y1.6656 I-0.0342 J0.0824
G3 X3.0856 Y1.6841 I-0.0944 J0.1389
G3 X3.0992 Y1.6982 I-0.2419 J0.2455
G3 X3.1062 Y1.7117 I-0.2169 J0.1212
G3 X3.1107 Y1.7215 I-0.2303 J0.1107
G3 X3.1159 Y1.7344 I-0.3361 J0.1443
G3 X3.1186 Y1.7417 I-0.2454 J0.0945
G3 X3.1194 Y1.7638 I-0.3015 J0.0222
G3 X3.1194 Y1.7682 I-0.3024 J0
G3 X3.1177 Y1.7951 I-0.2932 J-0.0042
G3 X3.1098 Y1.8153 I-0.0975 J-0.0264
G3 X3.0942 Y1.8392 I-0.1261 J-0.0654
G3 X3.0743 Y1.8593 I-0.1084 J-0.0877
G3 X3.0579 Y1.8701 I-0.0575 J-0.07
G3 X3.0395 Y1.8777 I-0.0659 J-0.1317
G3 X3.0184 Y1.8834 I-0.0542 J-0.1589
G3 X2.9992 Y1.8858 I-0.0259 J-0.1292
G3 X2.9967 Y1.8857 I-0.0006 J-0.0124
G3 X2.9443 Y1.8671 I0.0191 J-0.137
G1 X2.9185 Y1.9099 F60
G3 X2.8665 Y1.8614 I0.0888 J-0.147 F60
G3 X2.8393 Y1.7969 I0.1366 J-0.0957
G3 X2.8363 Y1.7648 I0.169 J-0.0321
G3 X2.8409 Y1.7255 I0.172 J0
G3 X2.8442 Y1.7164 I0.2155 J0.0755
G3 X2.8496 Y1.7037 I0.3626 J0.1443
G3 X2.8557 Y1.6904 I0.3944 J0.1733
G3 X2.8648 Y1.673 I0.2627 J0.1264
G3 X2.8673 Y1.6691 I0.0364 J0.0206
G3 X2.8706 Y1.665 I0.0417 J0.0301
G3 X2.8865 Y1.6482 I0.3062 J0.2729
G3 X2.9154 Y1.6243 I0.1455 J0.1466
G3 X2.9399 Y1.611 I0.0763 J0.1116
G3 X2.9667 Y1.603 I0.0515 J0.1242
G3 X3.0039 Y1.5996 I0.0371 J0.1989
G3 X3.0396 Y1.6029 I0 J0.1929
G3 X3.0662 Y1.6109 I-0.0249 J0.1323
G3 X3.0911 Y1.6243 I-0.0533 J0.1286
G3 X3.1207 Y1.6485 I-0.1224 J0.1803
G3 X3.1369 Y1.6654 I-0.277 J0.2811
G3 X3.1399 Y1.6691 I-0.033 J0.0297
G3 X3.142 Y1.6723 I-0.0284 J0.0205
G3 X3.1512 Y1.69 I-0.2597 J0.1471
G3 X3.1566 Y1.7018 I-0.2753 J0.1324
G3 X3.1625 Y1.7164 I-0.3821 J0.1641
G3 X3.1673 Y1.7295 I-0.292 J0.1125
G3 X3.1684 Y1.7373 I-0.0568 J0.0121
G3 X3.1694 Y1.7638 I-0.3514 J0.0266
G3 X3.1693 Y1.7689 I-0.3524 J0
G3 X3.1674 Y1.8006 I-0.3432 J-0.005
G3 X3.166 Y1.8079 I-0.047 J-0.005
G3 X3.1542 Y1.8384 I-0.1459 J-0.0391
G3 X3.1331 Y1.8707 I-0.1705 J-0.0885
G3 X3.1061 Y1.8979 I-0.1473 J-0.1191
G3 X3.0802 Y1.9148 I-0.0893 J-0.1086
G3 X3.0557 Y1.9251 I-0.0882 J-0.1765
G3 X3.0282 Y1.9325 I-0.0703 J-0.2062
G3 X3.0018 Y1.9358 I-0.0358 J-0.1782
G3 X2.9898 Y1.9352 I-0.0032 J-0.0624
G3 X2.9185 Y1.9099 I0.026 J-0.1865
G1 X2.8926 Y1.9527 F60
G3 X2.8256 Y1.8901 I0.1147 J-0.1898 F60
G3 X2.7902 Y1.8062 I0.1776 J-0.1243
G3 X2.7863 Y1.7648 I0.2181 J-0.0415
G3 X2.7922 Y1.7139 I0.222 J0
G2 X2.7926 Y1.7119 I-0.0609 J-0.0141
G3 X2.7978 Y1.698 I0.2637 J0.0891
G3 X2.8038 Y1.6836 I0.4091 J0.1628
G3 X2.8106 Y1.6688 I0.4401 J0.1935
G3 X2.8213 Y1.6483 I0.3077 J0.148
G3 X2.8267 Y1.6399 I0.0799 J0.0453
G3 X2.8332 Y1.6317 I0.0823 J0.0594
G3 X2.8512 Y1.6127 I0.3435 J0.3062
G3 X2.8872 Y1.583 I0.1807 J0.1821
G3 X2.9207 Y1.5648 I0.1045 J0.1529
G3 X2.9575 Y1.5539 I0.0707 J0.1704
G3 X3.0039 Y1.5496 I0.0463 J0.248
G3 X3.0488 Y1.5538 I0 J0.2429
G3 X3.0854 Y1.5647 I-0.0342 J0.1815
G3 X3.1192 Y1.5829 I-0.0724 J0.1748
G3 X3.1558 Y1.6128 I-0.1505 J0.2217
G3 X3.1741 Y1.6319 I-0.3121 J0.3167
G3 X3.1804 Y1.6397 I-0.0701 J0.0632
G3 X3.1855 Y1.6477 I-0.0689 J0.0499
G3 X3.1963 Y1.6683 I-0.3032 J0.1717
G3 X3.2025 Y1.6821 I-0.3204 J0.154
G3 X3.2092 Y1.6984 I-0.428 J0.1838
G3 X3.2148 Y1.7141 I-0.3387 J0.1305
G3 X3.2158 Y1.7176 I-0.0407 J0.0136
G3 X3.2182 Y1.7335 I-0.1054 J0.024
G3 X3.2194 Y1.7638 I-0.4012 J0.0303
G3 X3.2193 Y1.7697 I-0.4024 J0
G3 X3.2171 Y1.8059 I-0.3932 J-0.0057
G3 X3.2143 Y1.8209 I-0.0967 J-0.0104
G3 X3.1986 Y1.8614 I-0.1941 J-0.0521
G3 X3.172 Y1.9021 I-0.2149 J-0.1115
G3 X3.1378 Y1.9366 I-0.1862 J-0.1505
G3 X3.1026 Y1.9595 I-0.121 J-0.1472
G3 X3.0718 Y1.9724 I-0.1106 J-0.2212
G3 X3.0381 Y1.9815 I-0.0865 J-0.2535
G3 X3.0043 Y1.9857 I-0.0456 J-0.2272
G3 X2.9829 Y1.9848 I-0.0058 J-0.1123
G3 X2.8926 Y1.9527 I0.0329 J-0.236
G0 Z0.125 F1
G0 X2.996 Y1.7815
G1 Z-0.1 F1
G3 X2.9894 Y1.7754 I0.0113 J-0.0186 F60
G3 X2.9867 Y1.7689 I0.0137 J-0.0096
G3 X2.9863 Y1.7654 I0.0216 J-0.0041
G3 X2.9869 Y1.7641 I0.2206 J0.0954
G3 X2.9904 Y1.7564 I0.257 J0.113
G3 X2.9921 Y1.7546 I0.1865 J0.1814
G3 X2.9975 Y1.75 I0.0398 J0.0401
G3 X3.0039 Y1.7496 I0.0064 J0.0519
G3 X3.009 Y1.7499 I0 J0.0429
G3 X3.0158 Y1.7557 I-0.0403 J0.0547
G1 X3.0154 Y1.7553
G3 X3.0168 Y1.7567 I-0.1717 J0.1743
G3 X3.0188 Y1.761 I-0.1409 J0.0657
G3 X3.0194 Y1.7624 I-0.2442 J0.1049
G3 X3.0194 Y1.7638 I-0.2024 J0.0014
G3 X3.0194 Y1.7668 I-0.2024 J0
G3 X3.0192 Y1.7726 I-0.1933 J-0.0028
G3 X3.0164 Y1.7764 I-0.0355 J-0.0226
G3 X3.0117 Y1.7813 I-0.0307 J-0.0248
G3 X3.0073 Y1.7831 I-0.0197 J-0.043
G3 X3.0023 Y1.7846 I-0.0219 J-0.0642
G3 X2.996 Y1.7815 I0.0135 J-0.0358
G1 X2.9702 Y1.8243 F60
G3 X2.9485 Y1.8041 I0.0371 J-0.0614 F60
G3 X2.9376 Y1.7782 I0.0547 J-0.0383
G3 X2.9363 Y1.7648 I0.0707 J-0.0134
G3 X2.9372 Y1.7532 I0.072 J0
G3 X2.9411 Y1.744 I0.2696 J0.1076
G3 X2.9458 Y1.7338 I0.3028 J0.1331
G3 X2.949 Y1.7274 I0.1726 J0.083
G3 X2.9569 Y1.7192 I0.2278 J0.2104
G3 X2.9718 Y1.7068 I0.0751 J0.0756
G3 X2.9782 Y1.7034 I0.0199 J0.0291
G3 X2.9851 Y1.7013 I0.0132 J0.0318
G3 X3.0039 Y1.6996 I0.0188 J0.1006
G3 X3.0211 Y1.7012 I0 J0.0929
G3 X3.0279 Y1.7032 I-0.0064 J0.0341
G3 X3.0349 Y1.707 I-0.015 J0.0362
G3 X3.0505 Y1.7197 I-0.0663 J0.0976
G3 X3.0582 Y1.7275 I-0.2068 J0.2099
G3 X3.0611 Y1.7333 I-0.1759 J0.0919
G3 X3.0647 Y1.7413 I-0.1852 J0.089
G3 X3.0691 Y1.752 I-0.2902 J0.1246
G3 X3.0694 Y1.7638 I-0.2521 J0.0118
G3 X3.0694 Y1.7675 I-0.2524 J0
G3 X3.0684 Y1.7854 I-0.2432 J-0.0035
G3 X3.0655 Y1.7923 I-0.0482 J-0.0166
G3 X3.0553 Y1.8078 I-0.0818 J-0.0424
G3 X3.0426 Y1.8207 I-0.0696 J-0.0562
G3 X3.0355 Y1.8253 I-0.0258 J-0.0314
G3 X3.0234 Y1.8304 I-0.0435 J-0.087
G3 X3.0086 Y1.8344 I-0.0381 J-0.1116
G3 X3.0002 Y1.8356 I-0.0161 J-0.0802
G3 X2.9966 Y1.8359 I-0.0077 J-0.0814
G3 X3.0036 Y1.8362 I0.0019 J0.0375
G3 X3.0002 Y1.8356 I0.0122 J-0.0875
G3 X2.9702 Y1.8243 I0.0156 J-0.0869
G1 X2.9443 Y1.8671 F60
G3 X2.9075 Y1.8327 I0.063 J-0.1042 F60
G3 X2.8884 Y1.7876 I0.0957 J-0.067
G3 X2.8863 Y1.7648 I0.1199 J-0.0228
G3 X2.889 Y1.7394 I0.122 J0
G3 X2.8907 Y1.7349 I0.1674 J0.0616
G3 X2.8953 Y1.7238 I0.3162 J0.1258
G3 X2.9007 Y1.7121 I0.3486 J0.1532
G3 X2.908 Y1.6982 I0.2176 J0.1047
G3 X2.9217 Y1.6837 I0.2689 J0.2396
G3 X2.9436 Y1.6656 I0.1103 J0.1111
G3 X2.959 Y1.6572 I0.0481 J0.0704
G3 X2.9759 Y1.6522 I0.0324 J0.078
G3 X3.0039 Y1.6496 I0.028 J0.1497
G3 X3.0303 Y1.652 I0 J0.1429
G3 X3.0471 Y1.657 I-0.0157 J0.0832
G3 X3.063 Y1.6656 I-0.0342 J0.0824
G3 X3.0856 Y1.6841 I-0.0944 J0.1389
G3 X3.0992 Y1.6982 I-0.2419 J0.2455
G3 X3.1062 Y1.7117 I-0.2169 J0.1212
G3 X3.1107 Y1.7215 I-0.2303 J0.1107
G3 X3.1159 Y1.7344 I-0.3361 J0.1443
G3 X3.1186 Y1.7417 I-0.2454 J0.0945
G3 X3.1194 Y1.7638 I-0.3015 J0.0222
G3 X3.1194 Y1.7682 I-0.3024 J0
G3 X3.1177 Y1.7951 I-0.2932 J-0.0042
G3 X3.1098 Y1.8153 I-0.0975 J-0.0264
G3 X3.0942 Y1.8392 I-0.1261 J-0.0654
G3 X3.0743 Y1.8593 I-0.1084 J-0.0877
G3 X3.0579 Y1.8701 I-0.0575 J-0.07
G3 X3.0395 Y1.8777 I-0.0659 J-0.1317
G3 X3.0184 Y1.8834 I-0.0542 J-0.1589
G3 X2.9992 Y1.8858 I-0.0259 J-0.1292
G3 X2.9967 Y1.8857 I-0.0006 J-0.0124
G3 X2.9443 Y1.8671 I0.0191 J-0.137
G1 X2.9185 Y1.9099 F60
G3 X2.8665 Y1.8614 I0.0888 J-0.147 F60
G3 X2.8393 Y1.7969 I0.1366 J-0.0957
G3 X2.8363 Y1.7648 I0.169 J-0.0321
G3 X2.8409 Y1.7255 I0.172 J0
G3 X2.8442 Y1.7164 I0.2155 J0.0755
G3 X2.8496 Y1.7037 I0.3626 J0.1443
G3 X2.8557 Y1.6904 I0.3944 J0.1733
G3 X2.8648 Y1.673 I0.2627 J0.1264
G3 X2.8673 Y1.6691 I0.0364 J0.0206
G3 X2.8706 Y1.665 I0.0417 J0.0301
G3 X2.8865 Y1.6482 I0.3062 J0.2729
G3 X2.9154 Y1.6243 I0.1455 J0.1466
G3 X2.9399 Y1.611 I0.0763 J0.1116
G3 X2.9667 Y1.603 I0.0515 J0.1242
G3 X3.0039 Y1.5996 I0.0371 J0.1989
G3 X3.0396 Y1.6029 I0 J0.1929
G3 X3.0662 Y1.6109 I-0.0249 J0.1323
G3 X3.0911 Y1.6243 I-0.0533 J0.1286
G3 X3.1207 Y1.6485 I-0.1224 J0.1803
G3 X3.1369 Y1.6654 I-0.277 J0.2811
G3 X3.1399 Y1.6691 I-0.033 J0.0297
G3 X3.142 Y1.6723 I-0.0284 J0.0205
G3 X3.1512 Y1.69 I-0.2597 J0.1471
G3 X3.1566 Y1.7018 I-0.2753 J0.1324
G3 X3.1625 Y1.7164 I-0.3821 J0.1641
G3 X3.1673 Y1.7295 I-0.292 J0.1125
G3 X3.1684 Y1.7373 I-0.0568 J0.0121
G3 X3.1694 Y1.7638 I-0.3514 J0.0266
G3 X3.1693 Y1.7689 I-0.3524 J0
G3 X3.1674 Y1.8006 I-0.3432 J-0.005
G3 X3.166 Y1.8079 I-0.047 J-0.005
G3 X3.1542 Y1.8384 I-0.1459 J-0.0391
G3 X3.1331 Y1.8707 I-0.1705 J-0.0885
G3 X3.1061 Y1.8979 I-0.1473 J-0.1191
G3 X3.0802 Y1.9148 I-0.0893 J-0.1086
G3 X3.0557 Y1.9251 I-0.0882 J-0.1765
G3 X3.0282 Y1.9325 I-0.0703 J-0.2062
G3 X3.0018 Y1.9358 I-0.0358 J-0.1782
G3 X2.9898 Y1.9352 I-0.0032 J-0.0624
G3 X2.9185 Y1.9099 I0.026 J-0.1865
G1 X2.8926 Y1.9527 F60
G3 X2.8256 Y1.8901 I0.1147 J-0.1898 F60
G3 X2.7902 Y1.8062 I0.1776 J-0.1243
G3 X2.7863 Y1.7648 I0.2181 J-0.0415
G3 X2.7922 Y1.7139 I0.222 J0
G2 X2.7926 Y1.7119 I-0.0609 J-0.0141
G3 X2.7978 Y1.698 I0.2637 J0.0891
G3 X2.8038 Y1.6836 I0.4091 J0.1628
G3 X2.8106 Y1.6688 I0.4401 J0.1935
G3 X2.8213 Y1.6483 I0.3077 J0.148
G3 X2.8267 Y1.6399 I0.0799 J0.0453
G3 X2.8332 Y1.6317 I0.0823 J0.0594
G3 X2.8512 Y1.6127 I0.3435 J0.3062
G3 X2.8872 Y1.583 I0.1807 J0.1821
G3 X2.9207 Y1.5648 I0.1045 J0.1529
G3 X2.9575 Y1.5539 I0.0707 J0.1704
G3 X3.0039 Y1.5496 I0.0463 J0.248
G3 X3.0488 Y1.5538 I0 J0.2429
G3 X3.0854 Y1.5647 I-0.0342 J0.1815
G3 X3.1192 Y1.5829 I-0.0724 J0.1748
G3 X3.1558 Y1.6128 I-0.1505 J0.2217
G3 X3.1741 Y1.6319 I-0.3121 J0.3167
G3 X3.1804 Y1.6397 I-0.0701 J0.0632
G3 X3.1855 Y1.6477 I-0.0689 J0.0499
G3 X3.1963 Y1.6683 I-0.3032 J0.1717
G3 X3.2025 Y1.6821 I-0.3204 J0.154
G3 X3.2092 Y1.6984 I-0.428 J0.1838
G3 X3.2148 Y1.7141 I-0.3387 J0.1305
G3 X3.2158 Y1.7176 I-0.0407 J0.0136
G3 X3.2182 Y1.7335 I-0.1054 J0.024
G3 X3.2194 Y1.7638 I-0.4012 J0.0303
G3 X3.2193 Y1.7697 I-0.4024 J0
G3 X3.2171 Y1.8059 I-0.3932 J-0.0057
G3 X3.2143 Y1.8209 I-0.0967 J-0.0104
G3 X3.1986 Y1.8614 I-0.1941 J-0.0521
G3 X3.172 Y1.9021 I-0.2149 J-0.1115
G3 X3.1378 Y1.9366 I-0.1862 J-0.1505
G3 X3.1026 Y1.9595 I-0.121 J-0.1472
G3 X3.0718 Y1.9724 I-0.1106 J-0.2212
G3 X3.0381 Y1.9815 I-0.0865 J-0.2535
G3 X3.0043 Y1.9857 I-0.0456 J-0.2272
G3 X2.9829 Y1.9848 I-0.0058 J-0.1123
G3 X2.8926 Y1.9527 I0.0329 J-0.236

(body)
G0 Z0.125 F1
G0 X2.7389 Y1.0888
G1 Z-0.05 F1
G2 X3.0016 Y0.9754 I-0.0007 J-0.3628 F60
G1 X3.0022 Y0.9748
G1 X3.0025 Y0.9752
G2 X3.2647 Y1.0871 I0.2622 J-0.2513
G2 X3.268 Y1.0871 I0 J-0.3627
G1 X3.268 Y1.0954
G1 X3.0035 Y1.0954
G1 X2.7389 Y1.0954
G1 X2.7389 Y1.0888
G1 X2.6889 Y1.0349 F60
G2 X2.9653 Y0.941 I0.0493 J-0.3088 F60
G2 X3.0019 Y0.8946 I-0.2357 J-0.2231
G2 X3.0386 Y0.9406 I0.2716 J-0.1791
G2 X3.2647 Y1.0371 I0.2261 J-0.2167
G2 X3.318 Y1.0325 I0 J-0.3127
G1 X3.318 Y1.1454
G1 X3.0035 Y1.1454
G1 X2.6889 Y1.1454
G1 X2.6889 Y1.0349
G1 X2.6389 Y0.9693 F60
G2 X2.929 Y0.9067 I0.0993 J-0.2433 F60
G2 X2.9602 Y0.867 I-0.1994 J-0.1887
G2 X2.9697 Y0.8511 I-0.2521 J-0.163
G2 X2.9758 Y0.8399 I-0.3543 J-0.1993
G2 X2.9835 Y0.8245 I-0.48 J-0.2503
G2 X2.9925 Y0.8056 I-1.1114 J-0.5356
G2 X3.0028 Y0.7827 I-1.8327 J-0.8451
G3 X3.0038 Y0.7852 I-0.7453 J0.2991
G3 X3.0057 Y0.7901 I-0.2179 J0.0866
G2 X3.0066 Y0.7925 I0.2461 J-0.0914
G2 X3.015 Y0.8133 I0.4974 J-0.1902
G2 X3.0249 Y0.8344 I0.3795 J-0.1637
G2 X3.0321 Y0.8481 I0.3163 J-0.1582
G2 X3.0435 Y0.8669 I0.257 J-0.1429
G2 X3.0747 Y0.906 I0.23 J-0.1514
G2 X3.2647 Y0.9871 I0.19 J-0.1821
G2 X3.368 Y0.9659 I0 J-0.2627
G1 X3.368 Y1.1954
G1 X3.0035 Y1.1954
G1 X2.6389 Y1.1954
G1 X2.6389 Y0.9693
G1 X2.6287 Y0.9085 F60
G2 X2.8927 Y0.8723 I0.1095 J-0.1824 F60
G2 X2.9182 Y0.8398 I-0.1631 J-0.1543
G2 X2.9261 Y0.8266 I-0.2101 J-0.1359
G2 X2.9315 Y0.8167 I-0.3108 J-0.1748
G2 X2.9385 Y0.8028 I-0.4357 J-0.2272
G2 X2.947 Y0.7847 I-1.0664 J-0.5139
G2 X2.9623 Y0.7507 I-1.7873 J-0.8242
G2 X2.9833 Y0.7021 I-3.8934 J-1.7068
G3 X2.9858 Y0.696 I172.2098 J72.95
G3 X2.9911 Y0.6835 I751.2438 J318.2661
G2 X3.003 Y0.6554 I-87.9287 J-37.2529
G2 X3.0122 Y0.6773 I14.4629 J-6.0487
G2 X3.0306 Y0.7208 I7.8015 J-3.2766
G2 X3.0371 Y0.7354 I0.6274 J-0.2677
G3 X3.0402 Y0.7425 I-0.3755 J0.1707
G3 X3.0453 Y0.7544 I-0.8537 J0.3689
G3 X3.0503 Y0.7667 I-0.7877 J0.3275
G3 X3.0526 Y0.7727 I-0.2644 J0.1051
G2 X3.0533 Y0.7746 I0.1992 J-0.074
G2 X3.061 Y0.7935 I0.4507 J-0.1723
G2 X3.0696 Y0.812 I0.3335 J-0.1439
G2 X3.0758 Y0.8238 I0.2716 J-0.1358
G2 X3.0853 Y0.8394 I0.2133 J-0.1186
G2 X3.1108 Y0.8714 I0.1882 J-0.1239
G2 X3.2647 Y0.9371 I0.1539 J-0.1475
G2 X3.418 Y0.8718 I0 J-0.2127
G1 X3.418 Y0.9162
G1 X3.418 Y1.2454
G1 X3.0035 Y1.2454
G1 X2.5889 Y1.2454
G1 X2.5889 Y0.9162
G1 X2.5889 Y0.8776
G2 X2.6105 Y0.8962 I0.1494 J-0.1517
G2 X2.6287 Y0.9085 I0.1275 J-0.17
G1 X2.6544 Y0.8656 F60
G2 X2.8564 Y0.8379 I0.0837 J-0.1396 F60
G2 X2.8762 Y0.8127 I-0.1267 J-0.12
G2 X2.8826 Y0.8021 I-0.1681 J-0.1087
G2 X2.8872 Y0.7936 I-0.2672 J-0.1502
G2 X2.8934 Y0.7811 I-0.3913 J-0.2041
G2 X2.9016 Y0.7637 I-1.0213 J-0.4922
G2 X2.9165 Y0.7306 I-1.7419 J-0.8032
G2 X2.9372 Y0.6825 I-3.8476 J-1.6868
G3 X2.9398 Y0.6765 I172.2559 J72.9695
G3 X2.9451 Y0.664 I751.2899 J318.2856
G2 X2.998 Y0.539 I-87.8827 J-37.2334
G2 X2.9988 Y0.5371 I-6.396 J-2.6991
G1 X3.0018 Y0.5371
G3 X3.008 Y0.5371 I0 J4.7049
G3 X3.02 Y0.5659 I-7.1843 J3.0082
G2 X3.0412 Y0.617 I22.5946 J-9.3544
G2 X3.0583 Y0.6579 I14.4247 J-6.0103
G2 X3.0766 Y0.7012 I7.7554 J-3.2573
G2 X3.0826 Y0.7147 I0.5814 J-0.248
G3 X3.0861 Y0.7227 I-0.421 J0.1914
G3 X3.0914 Y0.7352 I-0.8996 J0.3887
G3 X3.0967 Y0.7482 I-0.8339 J0.3467
G3 X3.0995 Y0.7553 I-0.3109 J0.1236
G2 X3.1 Y0.7568 I0.1523 J-0.0566
G2 X3.1069 Y0.7736 I0.404 J-0.1545
G2 X3.1143 Y0.7896 I0.2876 J-0.1241
G2 X3.1195 Y0.7995 I0.2269 J-0.1134
G2 X3.127 Y0.8119 I0.1696 J-0.0943
G2 X3.1469 Y0.8368 I0.1465 J-0.0965
G2 X3.2647 Y0.8871 I0.1178 J-0.1129
G2 X3.424 Y0.7574 I0 J-0.1627
G2 X3.4271 Y0.7371 I-0.191 J-0.0397
G2 X3.4279 Y0.728 I-0.2602 J-0.026
G2 X3.4284 Y0.7183 I-0.5356 J-0.0344
G2 X3.429 Y0.7022 I-0.8822 J-0.0407
G2 X3.4296 Y0.6761 I-2.6548 J-0.074
G2 X3.4303 Y0.6253 I-4.661 J-0.0842
G2 X3.4305 Y0.5496 I-10.5718 J-0.0757
G1 X3.4305 Y0.5371
G1 X3.4493 Y0.5371
G1 X3.468 Y0.5371
G1 X3.468 Y0.9162
G1 X3.468 Y1.2954
G1 X3.0035 Y1.2954
G1 X2.5389 Y1.2954
G1 X2.5389 Y0.9162
G1 X2.5389 Y0.5371
G1 X2.5555 Y0.5371
G1 X2.5722 Y0.5371
G1 X2.5722 Y0.5492
G2 X2.5725 Y0.6212 I8.5892 J0
G2 X2.5733 Y0.6765 I4.9852 J-0.0418
G2 X2.5739 Y0.7022 I3.0571 J-0.0596
G2 X2.5745 Y0.7185 I1.0995 J-0.0307
G2 X2.5749 Y0.7277 I0.6643 J-0.0284
G2 X2.5755 Y0.7356 I0.3057 J-0.0173
G2 X2.5773 Y0.7508 I0.2145 J-0.0177
G2 X2.6405 Y0.8562 I0.1611 J-0.0249
G2 X2.6544 Y0.8656 I0.0975 J-0.13
G1 X2.6802 Y0.8227 F60
G2 X2.8201 Y0.8035 I0.058 J-0.0967 F60
G2 X2.8342 Y0.7855 I-0.0904 J-0.0856
G2 X2.839 Y0.7776 I-0.1262 J-0.0816
G2 X2.8428 Y0.7705 I-0.2236 J-0.1257
G2 X2.8484 Y0.7594 I-0.347 J-0.181
G2 X2.8562 Y0.7428 I-0.9763 J-0.4704
G2 X2.8707 Y0.7106 I-1.6965 J-0.7823
G2 X2.8912 Y0.663 I-3.8018 J-1.6667
G3 X2.8938 Y0.657 I172.3019 J72.989
G3 X2.8991 Y0.6445 I751.3359 J318.3051
G2 X2.9519 Y0.5196 I-87.8367 J-37.2139
G2 X2.9655 Y0.4871 I-6.35 J-2.6797
G1 X3.0018 Y0.4871
G3 X3.0412 Y0.4872 I0 J4.7549
G3 X3.0464 Y0.4995 I-4.3935 J1.8671
G3 X3.0662 Y0.5468 I-7.2227 J3.0458
G2 X3.0874 Y0.5978 I22.5484 J-9.3353
G2 X3.1044 Y0.6386 I14.3786 J-5.9911
G2 X3.1226 Y0.6816 I7.7093 J-3.2379
G2 X3.1281 Y0.6941 I0.5355 J-0.2284
G3 X3.132 Y0.7028 I-0.4665 J0.2121
G3 X3.1376 Y0.716 I-0.9455 J0.4085
G3 X3.1432 Y0.7297 I-0.88 J0.3659
G3 X3.1463 Y0.7379 I-0.3573 J0.1421
G2 X3.1467 Y0.7389 I0.1055 J-0.0392
G2 X3.1528 Y0.7538 I0.3573 J-0.1366
G2 X3.159 Y0.7673 I0.2417 J-0.1043
G2 X3.1632 Y0.7752 I0.1822 J-0.0911
G2 X3.1688 Y0.7844 I0.1259 J-0.07
G2 X3.183 Y0.8022 I0.1047 J-0.069
G2 X3.2647 Y0.8371 I0.0817 J-0.0783
G2 X3.3751 Y0.7473 I0 J-0.1127
G2 X3.3774 Y0.7322 I-0.1421 J-0.0295
G2 X3.378 Y0.7248 I-0.2104 J-0.021
G2 X3.3785 Y0.716 I-0.4857 J-0.0312
G2 X3.379 Y0.7008 I-0.8323 J-0.0384
G2 X3.3796 Y0.6752 I-2.6048 J-0.0726
G2 X3.3803 Y0.625 I-4.611 J-0.0833
G2 X3.3805 Y0.5496 I-10.5218 J-0.0754
G1 X3.3805 Y0.4871
G1 X3.4493 Y0.4871
G1 X3.518 Y0.4871
G1 X3.518 Y0.9162
G1 X3.518 Y1.3454
G1 X3.0035 Y1.3454
G1 X2.4889 Y1.3454
G1 X2.4889 Y0.9162
G1 X2.4889 Y0.4871
G1 X2.5555 Y0.4871
G1 X2.6222 Y0.4871
G1 X2.6222 Y0.5492
G2 X2.6225 Y0.6208 I8.5392 J0
G2 X2.6233 Y0.6755 I4.9352 J-0.0414
G2 X2.6239 Y0.7009 I3.0071 J-0.0586
G2 X2.6244 Y0.7164 I1.0495 J-0.0293
G2 X2.6248 Y0.7249 I0.6144 J-0.0263
G2 X2.6253 Y0.7315 I0.2558 J-0.0145
G2 X2.6267 Y0.7431 I0.1646 J-0.0136
G2 X2.6705 Y0.8162 I0.1116 J-0.0173
G2 X2.6802 Y0.8227 I0.0675 J-0.09
G1 X2.7059 Y0.7798 F60
G2 X2.7837 Y0.7692 I0.0323 J-0.0538 F60
G2 X2.7922 Y0.7584 I-0.0541 J-0.0512
G2 X2.7954 Y0.7531 I-0.0842 J-0.0544
G2 X2.7985 Y0.7474 I-0.18 J-0.1012
G2 X2.8034 Y0.7377 I-0.3027 J-0.1578
G2 X2.8108 Y0.7218 I-0.9313 J-0.4487
G2 X2.8249 Y0.6905 I-1.6511 J-0.7614
G2 X2.8452 Y0.6435 I-3.756 J-1.6466
G3 X2.8477 Y0.6375 I172.348 J73.0085
G3 X2.853 Y0.625 I751.3819 J318.3246
G2 X2.9058 Y0.5001 I-87.7906 J-37.1944
G2 X2.9198 Y0.4669 I-6.3039 J-2.6602
G1 X2.9324 Y0.4371
G1 X3.0018 Y0.4371
G3 X3.0644 Y0.4375 I0 J4.8049
G3 X3.0744 Y0.4377 I-0.0087 J0.6694
G3 X3.0767 Y0.443 I-2.7273 J1.1833
G3 X3.0925 Y0.4801 I-4.4289 J1.9113
G3 X3.1124 Y0.5277 I-7.2688 J3.0652
G2 X3.1335 Y0.5786 I22.5022 J-9.3162
G2 X3.1505 Y0.6192 I14.3324 J-5.9719
G2 X3.1686 Y0.662 I7.6632 J-3.2186
G2 X3.1736 Y0.6734 I0.4895 J-0.2088
G3 X3.1779 Y0.683 I-0.5121 J0.2328
G3 X3.1838 Y0.6968 I-0.9914 J0.4284
G3 X3.1896 Y0.7113 I-0.9262 J0.3851
G3 X3.1932 Y0.7205 I-0.4038 J0.1605
G1 X3.1934 Y0.7211
G2 X3.1987 Y0.734 I0.3106 J-0.1187
G2 X3.2037 Y0.7449 I0.1958 J-0.0845
G2 X3.2069 Y0.7509 I0.1374 J-0.0687
G2 X3.2105 Y0.7569 I0.0822 J-0.0457
G2 X3.2191 Y0.7676 I0.063 J-0.0415
G2 X3.2647 Y0.7871 I0.0456 J-0.0437
G2 X3.3261 Y0.7371 I0 J-0.0627
G2 X3.3276 Y0.7272 I-0.0931 J-0.0193
G2 X3.3281 Y0.7215 I-0.1607 J-0.016
G2 X3.3285 Y0.7137 I-0.4358 J-0.028
G2 X3.3291 Y0.6994 I-0.7823 J-0.0361
G2 X3.3296 Y0.6743 I-2.5548 J-0.0712
G2 X3.3303 Y0.6246 I-4.561 J-0.0824
G2 X3.3305 Y0.5496 I-10.4718 J-0.075
G1 X3.3305 Y0.4371
G1 X3.4493 Y0.4371
G1 X3.568 Y0.4371
G1 X3.568 Y0.9162
G1 X3.568 Y1.3954
G1 X3.0035 Y1.3954
G1 X2.4389 Y1.3954
G1 X2.4389 Y0.9162
G1 X2.4389 Y0.4371
G1 X2.5555 Y0.4371
G1 X2.6722 Y0.4371
G1 X2.6722 Y0.5492
G2 X2.6725 Y0.6204 I8.4892 J0
G2 X2.6733 Y0.6745 I4.8852 J-0.041
G2 X2.6738 Y0.6995 I2.9571 J-0.0576
G2 X2.6744 Y0.7143 I0.9995 J-0.0279
G2 X2.6748 Y0.7221 I0.5644 J-0.0241
G2 X2.6751 Y0.7274 I0.2058 J-0.0116
G2 X2.6761 Y0.7355 I0.1148 J-0.0095
G2 X2.7005 Y0.7762 I0.0622 J-0.0096
G2 X2.7059 Y0.7798 I0.0375 J-0.05
G0 Z0.125 F1
G0 X2.7389 Y1.0888
G1 Z-0.1 F1
G2 X3.0016 Y0.9754 I-0.0007 J-0.3628 F60
G1 X3.0022 Y0.9748
G1 X3.0025 Y0.9752
G2 X3.2647 Y1.0871 I0.2622 J-0.2513
G2 X3.268 Y1.0871 I0 J-0.3627
G1 X3.268 Y1.0954
G1 X3.0035 Y1.0954
G1 X2.7389 Y1.0954
G1 X2.7389 Y1.0888
G1 X2.6889 Y1.0349 F60
G2 X2.9653 Y0.941 I0.0493 J-0.3088 F60
G2 X3.0019 Y0.8946 I-0.2357 J-0.2231
G2 X3.0386 Y0.9406 I0.2716 J-0.1791
G2 X3.2647 Y1.0371 I0.2261 J-0.2167
G2 X3.318 Y1.0325 I0 J-0.3127
G1 X3.318 Y1.1454
G1 X3.0035 Y1.1454
G1 X2.6889 Y1.1454
G1 X2.6889 Y1.0349
G1 X2.6389 Y0.9693 F60
G2 X2.929 Y0.9067 I0.0993 J-0.2433 F60
G2 X2.9602 Y0.867 I-0.1994 J-0.1887
G2 X2.9697 Y0.8511 I-0.2521 J-0.163
G2 X2.9758 Y0.8399 I-0.3543 J-0.1993
G2 X2.9835 Y0.8245 I-0.48 J-0.2503
G2 X2.9925 Y0.8056 I-1.1114 J-0.5356
G2 X3.0028 Y0.7827 I-1.8327 J-0.8451
G3 X3.0038 Y0.7852 I-0.7453 J0.2991
G3 X3.0057 Y0.7901 I-0.2179 J0.0866
G2 X3.0066 Y0.7925 I0.2461 J-0.0914
G2 X3.015 Y0.8133 I0.4974 J-0.1902
G2 X3.0249 Y0.8344 I0.3795 J-0.1637
G2 X3.0321 Y0.8481 I0.3163 J-0.1582
G2 X3.0435 Y0.8669 I0.257 J-0.1429
G2 X3.0747 Y0.906 I0.23 J-0.1514
G2 X3.2647 Y0.9871 I0.19 J-0.1821
G2 X3.368 Y0.9659 I0 J-0.2627
G1 X3.368 Y1.1954
G1 X3.0035 Y1.1954
G1 X2.6389 Y1.1954
G1 X2.6389 Y0.9693
G1 X2.6287 Y0.9085 F60
G2 X2.8927 Y0.8723 I0.1095 J-0.1824 F60
G2 X2.9182 Y0.8398 I-0.1631 J-0.1543
G2 X2.9261 Y0.8266 I-0.2101 J-0.1359
G2 X2.9315 Y0.8167 I-0.3108 J-0.1748
G2 X2.9385 Y0.8028 I-0.4357 J-0.2272
G2 X2.947 Y0.7847 I-1.0664 J-0.5139
G2 X2.9623 Y0.7507 I-1.7873 J-0.8242
G2 X2.9833 Y0.7021 I-3.8934 J-1.7068
G3 X2.9858 Y0.696 I172.2098 J72.95
G3 X2.9911 Y0.6835 I751.2438 J318.2661
G2 X3.003 Y0.6554 I-87.9287 J-37.2529
G2 X3.0122 Y0.6773 I14.4629 J-6.0487
G2 X3.0306 Y0.7208 I7.8015 J-3.2766
G2 X3.0371 Y0.7354 I0.6274 J-0.2677
G3 X3.0402 Y0.7425 I-0.3755 J0.1707
G3 X3.0453 Y0.7544 I-0.8537 J0.3689
G3 X3.0503 Y0.7667 I-0.7877 J0.3275
G3 X3.0526 Y0.7727 I-0.2644 J0.1051
G2 X3.0533 Y0.7746 I0.1992 J-0.074
G2 X3.061 Y0.7935 I0.4507 J-0.1723
G2 X3.0696 Y0.812 I0.3335 J-0.1439
G2 X3.0758 Y0.8238 I0.2716 J-0.1358
G2 X3.0853 Y0.8394 I0.2133 J-0.1186
G2 X3.1108 Y0.8714 I0.1882 J-0.1239
G2 X3.2647 Y0.9371 I0.1539 J-0.1475
G2 X3.418 Y0.8718 I0 J-0.2127
G1 X3.418 Y0.9162
G1 X3.418 Y1.2454
G1 X3.0035 Y1.2454
G1 X2.5889 Y1.2454
G1 X2.5889 Y0.9162
G1 X2.5889 Y0.8776
G2 X2.6105 Y0.8962 I0.1494 J-0.1517
G2 X2.6287 Y0.9085 I0.1275 J-0.17
G1 X2.6544 Y0.8656 F60
G2 X2.8564 Y0.8379 I0.0837 J-0.1396 F60
G2 X2.8762 Y0.8127 I-0.1267 J-0.12
G2 X2.8826 Y0.8021 I-0.1681 J-0.1087
G2 X2.8872 Y0.7936 I-0.2672 J-0.1502
G2 X2.8934 Y0.7811 I-0.3913 J-0.2041
G2 X2.9016 Y0.7637 I-1.0213 J-0.4922
G2 X2.9165 Y0.7306 I-1.7419 J-0.8032
G2 X2.9372 Y0.6825 I-3.8476 J-1.6868
G3 X2.9398 Y0.6765 I172.2559 J72.9695
G3 X2.9451 Y0.664 I751.2899 J318.2856
G2 X2.998 Y0.539 I-87.8827 J-37.2334
G2 X2.9988 Y0.5371 I-6.396 J-2.6991
G1 X3.0018 Y0.5371
G3 X3.008 Y0.5371 I0 J4.7049
G3 X3.02 Y0.5659 I-7.1843 J3.0082
G2 X3.0412 Y0.617 I22.5946 J-9.3544
G2 X3.0583 Y0.6579 I14.4247 J-6.0103
G2 X3.0766 Y0.7012 I7.7554 J-3.2573
G2 X3.0826 Y0.7147 I0.5814 J-0.248
G3 X3.0861 Y0.7227 I-0.421 J0.1914
G3 X3.0914 Y0.7352 I-0.8996 J0.3887
G3 X3.0967 Y0.7482 I-0.8339 J0.3467
G3 X3.0995 Y0.7553 I-0.3109 J0.1236
G2 X3.1 Y0.7568 I0.1523 J-0.0566
G2 X3.1069 Y0.7736 I0.404 J-0.1545
G2 X3.1143 Y0.7896 I0.2876 J-0.1241
G2 X3.1195 Y0.7995 I0.2269 J-0.1134
G2 X3.127 Y0.8119 I0.1696 J-0.0943
G2 X3.1469 Y0.8368 I0.1465 J-0.0965
G2 X3.2647 Y0.8871 I0.1178 J-0.1129
G2 X3.424 Y0.7574 I0 J-0.1627
G2 X3.4271 Y0.7371 I-0.191 J-0.0397
G2 X3.4279 Y0.728 I-0.2602 J-0.026
G2 X3.4284 Y0.7183 I-0.5356 J-0.0344
G2 X3.429 Y0.7022 I-0.8822 J-0.0407
G2 X3.4296 Y0.6761 I-2.6548 J-0.074
G2 X3.4303 Y0.6253 I-4.661 J-0.0842
G2 X3.4305 Y0.5496 I-10.5718 J-0.0757
G1 X3.4305 Y0.5371
G1 X3.4493 Y0.5371
G1 X3.468 Y0.5371
G1 X3.468 Y0.9162
G1 X3.468 Y1.2954
G1 X3.0035 Y1.2954
G1 X2.5389 Y1.2954
G1 X2.5389 Y0.9162
G1 X2.5389 Y0.5371
G1 X2.5555 Y0.5371
G1 X2.5722 Y0.5371
G1 X2.5722 Y0.5492
G2 X2.5725 Y0.6212 I8.5892 J0
G2 X2.5733 Y0.6765 I4.9852 J-0.0418
G2 X2.5739 Y0.7022 I3.0571 J-0.0596
G2 X2.5745 Y0.7185 I1.0995 J-0.0307
G2 X2.5749 Y0.7277 I0.6643 J-0.0284
G2 X2.5755 Y0.7356 I0.3057 J-0.0173
G2 X2.5773 Y0.7508 I0.2145 J-0.0177
G2 X2.6405 Y0.8562 I0.1611 J-0.0249
G2 X2.6544 Y0.8656 I0.0975 J-0.13
G1 X2.6802 Y0.8227 F60
G2 X2.8201 Y0.8035 I0.058 J-0.0967 F60
G2 X2.8342 Y0.7855 I-0.0904 J-0.0856
G2 X2.839 Y0.7776 I-0.1262 J-0.0816
G2 X2.8428 Y0.7705 I-0.2236 J-0.1257
G2 X2.8484 Y0.7594 I-0.347 J-0.181
G2 X2.8562 Y0.7428 I-0.9763 J-0.4704
G2 X2.8707 Y0.7106 I-1.6965 J-0.7823
G2 X2.8912 Y0.663 I-3.8018 J-1.6667
G3 X2.8938 Y0.657 I172.3019 J72.989
G3 X2.8991 Y0.6445 I751.3359 J318.3051
G2 X2.9519 Y0.5196 I-87.8367 J-37.2139
G2 X2.9655 Y0.4871 I-6.35 J-2.6797
G1 X3.0018 Y0.4871
G3 X3.0412 Y0.4872 I0 J4.7549
G3 X3.0464 Y0.4995 I-4.3935 J1.8671
G3 X3.0662 Y0.5468 I-7.2227 J3.0458
G2 X3.0874 Y0.5978 I22.5484 J-9.3353
G2 X3.1044 Y0.6386 I14.3786 J-5.9911
G2 X3.1226 Y0.6816 I7.7093 J-3.2379
G2 X3.1281 Y0.6941 I0.5355 J-0.2284
G3 X3.132 Y0.7028 I-0.4665 J0.2121
G3 X3.1376 Y0.716 I-0.9455 J0.4085
G3 X3.1432 Y0.7297 I-0.88 J0.3659
G3 X3.1463 Y0.7379 I-0.3573 J0.1421
G2 X3.1467 Y0.7389 I0.1055 J-0.0392
G2 X3.1528 Y0.7538 I0.3573 J-0.1366
G2 X3.159 Y0.7673 I0.2417 J-0.1043
G2 X3.1632 Y0.7752 I0.1822 J-0.0911
G2 X3.1688 Y0.7844 I0.1259 J-0.07
G2 X3.183 Y0.8022 I0.1047 J-0.069
G2 X3.2647 Y0.8371 I0.0817 J-0.0783
G2 X3.3751 Y0.7473 I0 J-0.1127
G2 X3.3774 Y0.7322 I-0.1421 J-0.0295
G2 X3.378 Y0.7248 I-0.2104 J-0.021
G2 X3.3785 Y0.716 I-0.4857 J-0.0312
G2 X3.379 Y0.7008 I-0.8323 J-0.0384
G2 X3.3796 Y0.6752 I-2.6048 J-0.0726
G2 X3.3803 Y0.625 I-4.611 J-0.0833
G2 X3.3805 Y0.5496 I-10.5218 J-0.0754
G1 X3.3805 Y0.4871
G1 X3.4493 Y0.4871
G1 X3.518 Y0.4871
G1 X3.518 Y0.9162
G1 X3.518 Y1.3454
G1 X3.0035 Y1.3454
G1 X2.4889 Y1.3454
G1 X2.4889 Y0.9162
G1 X2.4889 Y0.4871
G1 X2.5555 Y0.4871
G1 X2.6222 Y0.4871
G1 X2.6222 Y0.5492
G2 X2.6225 Y0.6208 I8.5392 J0
G2 X2.6233 Y0.6755 I4.9352 J-0.0414
G2 X2.6239 Y0.7009 I3.0071 J-0.0586
G2 X2.6244 Y0.7164 I1.0495 J-0.0293
G2 X2.6248 Y0.7249 I0.6144 J-0.0263
G2 X2.6253 Y0.7315 I0.2558 J-0.0145
G2 X2.6267 Y0.7431 I0.1646 J-0.0136
G2 X2.6705 Y0.8162 I0.1116 J-0.0173
G2 X2.6802 Y0.8227 I0.0675 J-0.09
G1 X2.7059 Y0.7798 F60
G2 X2.7837 Y0.7692 I0.0323 J-0.0538 F60
G2 X2.7922 Y0.7584 I-0.0541 J-0.0512
G2 X2.7954 Y0.7531 I-0.0842 J-0.0544
G2 X2.7985 Y0.7474 I-0.18 J-0.1012
G2 X2.8034 Y0.7377 I-0.3027 J-0.1578
G2 X2.8108 Y0.7218 I-0.9313 J-0.4487
G2 X2.8249 Y0.6905 I-1.6511 J-0.7614
G2 X2.8452 Y0.6435 I-3.756 J-1.6466
G3 X2.8477 Y0.6375 I172.348 J73.0085
G3 X2.853 Y0.625 I751.3819 J318.3246
G2 X2.9058 Y0.5001 I-87.7906 J-37.1944
G2 X2.9198 Y0.4669 I-6.3039 J-2.6602
G1 X2.9324 Y0.4371
G1 X3.0018 Y0.4371
G3 X3.0644 Y0.4375 I0 J4.8049
G3 X3.0744 Y0.4377 I-0.0087 J0.6694
G3 X3.0767 Y0.443 I-2.7273 J1.1833
G3 X3.0925 Y0.4801 I-4.4289 J1.9113
G3 X3.1124 Y0.5277 I-7.2688 J3.0652
G2 X3.1335 Y0.5786 I22.5022 J-9.3162
G2 X3.1505 Y0.6192 I14.3324 J-5.9719
G2 X3.1686 Y0.662 I7.6632 J-3.2186
G2 X3.1736 Y0.6734 I0.4895 J-0.2088
G3 X3.1779 Y0.683 I-0.5121 J0.2328
G3 X3.1838 Y0.6968 I-0.9914 J0.4284
G3 X3.1896 Y0.7113 I-0.9262 J0.3851
G3 X3.1932 Y0.7205 I-0.4038 J0.1605
G1 X3.1934 Y0.7211
G2 X3.1987 Y0.734 I0.3106 J-0.1187
G2 X3.2037 Y0.7449 I0.1958 J-0.0845
G2 X3.2069 Y0.7509 I0.1374 J-0.0687
G2 X3.2105 Y0.7569 I0.0822 J-0.0457
G2 X3.2191 Y0.7676 I0.063 J-0.0415
G2 X3.2647 Y0.7871 I0.0456 J-0.0437
G2 X3.3261 Y0.7371 I0 J-0.0627
G2 X3.3276 Y0.7272 I-0.0931 J-0.0193
G2 X3.3281 Y0.7215 I-0.1607 J-0.016
G2 X3.3285 Y0.7137 I-0.4358 J-0.028
G2 X3.3291 Y0.6994 I-0.7823 J-0.0361
G2 X3.3296 Y0.6743 I-2.5548 J-0.0712
G2 X3.3303 Y0.6246 I-4.561 J-0.0824
G2 X3.3305 Y0.5496 I-10.4718 J-0.075
G1 X3.3305 Y0.4371
G1 X3.4493 Y0.4371
G1 X3.568 Y0.4371
G1 X3.568 Y0.9162
G1 X3.568 Y1.3954
G1 X3.0035 Y1.3954
G1 X2.4389 Y1.3954
G1 X2.4389 Y0.9162
G1 X2.4389 Y0.4371
G1 X2.5555 Y0.4371
G1 X2.6722 Y0.4371
G1 X2.6722 Y0.5492
G2 X2.6725 Y0.6204 I8.4892 J0
G2 X2.6733 Y0.6745 I4.8852 J-0.041
G2 X2.6738 Y0.6995 I2.9571 J-0.0576
G2 X2.6744 Y0.7143 I0.9995 J-0.0279
G2 X2.6748 Y0.7221 I0.5644 J-0.0241
G2 X2.6751 Y0.7274 I0.2058 J-0.0116
G2 X2.6761 Y0.7355 I0.1148 J-0.0095
G2 X2.7005 Y0.7762 I0.0622 J-0.0096
G2 X2.7059 Y0.7798 I0.0375 J-0.05
G0 Z0.125 F1
M5
M30
